!!!!SEGMENT: pl-wtm--r-1429_stefani-jozef--stabat-mater.krn
!!!cenid: 18xx:2447
!!!COM: Stefani, Józef
!!!COM-rismID: pe30024097
!!!CDT: 1800/04/16-1876/03/19
!!!CNT: Polish
!!!OTL: Stabat Mater
!!!PDT: 1860
!!!AGN:
!!!SMS-siglum: PL-Wtm
!!!SMS-shelfmark: R 1429
!!!SMS-shelfwork: W
!!!SMS-variant:
!!!SMS-altvar:
!!!NIFC-rismSourceID: 1001116128
!!!NIFC-rismChildID: 1001116128
!!!NIFC-islandoraID: pl-wtm:25564
!!!URL-pdf-islandora: https://repozytorium.nifc.pl/islandora/object/pl-wtm%3A25564/datastream/PDF/view
!!!URL-scan: https://polish.musicsources.pl/pl/lokalizacje/galeria/rekopisy/6247 @EN{Scan on Polish Music Sources Website} @PL{Skany w portalu Dziedzictwo Muzyki Polskiej w otwartym dostępie}
!!!IIIF:
!!!ONB-nifc:
!!!OMD: Andantino.
!!!AIN: 1 arpa 1 clars 1 cor 2 empty 1 fagot 1 flt 1 oboe 5 soprn 3 tenor
!!!key:
**kern	**kern	**dynam	**kern	**text	**dynam	**kern	**text	**dynam	**kern	**text	**dynam	**kern	**text	**dynam	**kern	**text	**dynam	**kern	**text	**dynam	**kern	**text	**dynam	**kern	**text	**dynam	**kern	**text	**dynam	**kern	**text	**dynam	**kern	**dynam	**kern	**dynam	**kern	**dynam	**kern	**kern	**dynam
*	*	*	*group4	*	*	*group4	*	*	*group3	*	*	*group3	*	*	*group3	*	*	*group3	*	*	*group2	*	*	*group2	*	*	*group2	*	*	*group2	*	*	*group1	*	*group1	*	*group1	*	*group1	*group1	*
*	*	*	*I""Choro	*	*	*I""Choro	*	*	*I""II.° Quartetto	*	*	*I""II.° Quartetto	*	*	*I""II.° Quartetto	*	*	*I""II.° Quartetto	*	*	*I""Imo Quartetto	*	*	*I""Imo Quartetto	*	*	*I""Imo Quartetto	*	*	*I""Imo Quartetto	*	*	*	*	*	*	*	*	*	*	*
*part16	*part16	*part16	*part15	*part15	*part15	*part14	*part14	*part14	*part13	*part13	*part13	*part12	*part12	*part12	*part11	*part11	*part11	*part10	*part10	*part10	*part9	*part9	*part9	*part8	*part8	*part8	*part7	*part7	*part7	*part6	*part6	*part6	*part5	*part5	*part4	*part4	*part3	*part3	*part2	*part1	*part1
*staff17	*staff16	*	*staff15	*staff15	*	*staff14	*staff14	*	*staff13	*staff13	*	*staff12	*staff12	*	*staff11	*staff11	*	*staff10	*staff10	*	*staff9	*staff9	*	*staff8	*staff8	*	*staff7	*staff7	*	*staff6	*staff6	*	*staff5	*	*staff4	*	*staff3	*	*staff2	*staff1	*
*Iarpa	*Iarpa	*	*Itenor	*	*	*Isoprn	*	*	*Iempty	*	*	*Itenor	*	*	*Isoprn	*	*	*Isoprn	*	*	*Iempty	*	*	*Itenor	*	*	*Isoprn	*	*	*Isoprn	*	*	*Ifagot	*	*Icor	*	*Iclars	*	*Ioboe	*Iflt	*
*I"Harpha	*I"Harpha	*	*I"Tenorie Baſsi	*	*	*I"Soprani	*	*	*I"Baſso.	*	*	*I"Tenore	*	*	*I"Soprano II.°	*	*	*I"Soprano I.°	*	*	*I"Baſso	*	*	*I"Tenore	*	*	*I"Soprano II°	*	*	*I"Soprano I.°	*	*	*I"Fagotti	*	*I"in D. Corni	*	*I"in a Clarinetti	*	*I"Oboe	*I"Flauto	*
*clefF4	*clefG2	*	*clefF4	*	*	*clefG2	*	*	*clefF4	*	*	*clefC4	*	*	*clefG2	*	*	*clefG2	*	*	*clefF4	*	*	*clefC4	*	*	*clefG2	*	*	*clefG2	*	*	*clefF4	*	*clefG2	*	*clefG2	*	*clefG2	*clefG2	*
*	*	*	*	*	*	*	*	*	*	*	*	*	*	*	*	*	*	*	*	*	*	*	*	*	*	*	*	*	*	*	*	*	*	*	*ITrd6c10	*	*ITrd2c3	*	*	*	*
*k[b-e-]	*k[b-e-]	*	*k[b-e-]	*	*	*k[b-e-]	*	*	*k[b-e-]	*	*	*k[b-e-]	*	*	*k[b-e-]	*	*	*k[b-e-]	*	*	*k[b-e-]	*	*	*k[b-e-]	*	*	*k[b-e-]	*	*	*k[b-e-]	*	*	*k[b-e-]	*	*k[f#c#]	*	*k[b-e-]	*	*k[b-e-]	*k[b-e-]	*
*g:	*g:	*	*g:	*	*	*g:	*	*	*g:	*	*	*g:	*	*	*g:	*	*	*g:	*	*	*g:	*	*	*g:	*	*	*g:	*	*	*g:	*	*	*g:	*	*g:	*	*g:	*	*g:	*g:	*
*M6/8	*M6/8	*	*M6/8	*	*	*M6/8	*	*	*M6/8	*	*	*M6/8	*	*	*M6/8	*	*	*M6/8	*	*	*M6/8	*	*	*M6/8	*	*	*M6/8	*	*	*M6/8	*	*	*M6/8	*	*M6/8	*	*M6/8	*	*M6/8	*M6/8	*
=1	=1	=1	=1	=1	=1	=1	=1	=1	=1	=1	=1	=1	=1	=1	=1	=1	=1	=1	=1	=1	=1	=1	=1	=1	=1	=1	=1	=1	=1	=1	=1	=1	=1	=1	=1	=1	=1	=1	=1	=1	=1
*	*	*	*	*	*	*	*	*	*	*	*	*	*	*	*	*	*	*	*	*	*	*	*	*	*	*	*	*	*	*	*	*	*	*	*	*	*^	*	*	*	*
!	!	!LO:DY:rj:t=for	!	!	!	!	!	!	!	!	!	!	!	!	!	!	!	!	!	!	!	!	!	!	!	!	!	!	!	!	!	!	!	!	!	!LO:DY:rj	!	!	!LO:DY:rj	!	!	!LO:DY:rj
8B-L 8BB-/	8dddL 8gg 8dd\	f	2.r	.	.	2.r	.	.	2.r	.	.	2.r	.	.	2.r	.	.	2.r	.	.	2.r	.	.	2.r	.	.	2.r	.	.	2.r	.	.	4B- 4BB-\	.	4d\	f	4dd\	4g\	f	4gg\	4ddd\	f
8r	8r	.	.	.	.	.	.	.	.	.	.	.	.	.	.	.	.	.	.	.	.	.	.	.	.	.	.	.	.	.	.	.	.	.	.	.	.	.	.	.	.	.
8AJ 8AA/	8cccJ 8ff#X 8dd\	.	.	.	.	.	.	.	.	.	.	.	.	.	.	.	.	.	.	.	.	.	.	.	.	.	.	.	.	.	.	.	8A 8AA\	.	8d\	.	8cc/	8f#\	.	8ff#X\	8ccc\	.
8GL 8GG/	8r	.	.	.	.	.	.	.	.	.	.	.	.	.	.	.	.	.	.	.	.	.	.	.	.	.	.	.	.	.	.	.	4G 4GG/	.	4d\	.	(8cc/L	4g\	.	4gg\	(8ccc\L	.
8r	8bb-L 8gg 8dd\	.	.	.	.	.	.	.	.	.	.	.	.	.	.	.	.	.	.	.	.	.	.	.	.	.	.	.	.	.	.	.	.	.	.	.	8b-/)	.	.	.	8bb-\)	.
8DJ 8DD/	8aaJ 8ff# 8dd\	.	.	.	.	.	.	.	.	.	.	.	.	.	.	.	.	.	.	.	.	.	.	.	.	.	.	.	.	.	.	.	8D 8DD/	.	8d\	.	8a'/J	8f#\	.	8ff#\	8aa'\J	.
=2	=2	=2	=2	=2	=2	=2	=2	=2	=2	=2	=2	=2	=2	=2	=2	=2	=2	=2	=2	=2	=2	=2	=2	=2	=2	=2	=2	=2	=2	=2	=2	=2	=2	=2	=2	=2	=2	=2	=2	=2	=2	=2
8E-L 8EE-/	8r	.	2.r	.	.	2.r	.	.	2.r	.	.	2.r	.	.	2.r	.	.	2.r	.	.	2.r	.	.	2.r	.	.	2.r	.	.	2.r	.	.	4E- 4EE-/	.	4d\	.	4b-/	4g\	.	4gg\	4gg\	.
8r	8ggL 8ee- 8b-\	.	.	.	.	.	.	.	.	.	.	.	.	.	.	.	.	.	.	.	.	.	.	.	.	.	.	.	.	.	.	.	.	.	.	.	.	.	.	.	.	.
8CJ 8CC/	8aaJ 8ee- 8cc\	.	.	.	.	.	.	.	.	.	.	.	.	.	.	.	.	.	.	.	.	.	.	.	.	.	.	.	.	.	.	.	8C 8CC/	.	8e-X 8cX\	.	8a/	8a\	.	8ee-\	8aa\	.
4D 4DD/	4ff#X 4dd 4a\	.	.	.	.	.	.	.	.	.	.	.	.	.	.	.	.	.	.	.	.	.	.	.	.	.	.	.	.	.	.	.	4D 4DD/	.	4d\	.	4a/	4f#\	.	4dd\	4ff#X\	.
8r	8dd\	.	.	.	.	.	.	.	.	.	.	.	.	.	.	.	.	.	.	.	.	.	.	.	.	.	.	.	.	.	.	.	8r	.	8r	.	8d/	8ryy	.	8dd\	8dd\	.
=3	=3	=3	=3	=3	=3	=3	=3	=3	=3	=3	=3	=3	=3	=3	=3	=3	=3	=3	=3	=3	=3	=3	=3	=3	=3	=3	=3	=3	=3	=3	=3	=3	=3	=3	=3	=3	=3	=3	=3	=3	=3	=3
8GL 8GG/	8r	.	2.r	.	.	2.r	.	.	2.r	.	.	2.r	.	.	2.r	.	.	2.r	.	.	2.r	.	.	2.r	.	.	2.r	.	.	2.r	.	.	4G 4GG/	.	4d\	.	4b-/	4g\	.	4gg\	4gg\	.
8r	8ggL 8dd 8b- 8g\	.	.	.	.	.	.	.	.	.	.	.	.	.	.	.	.	.	.	.	.	.	.	.	.	.	.	.	.	.	.	.	.	.	.	.	.	.	.	.	.	.
8DJ 8DD/	8aaJ 8ff#X 8dd\	.	.	.	.	.	.	.	.	.	.	.	.	.	.	.	.	.	.	.	.	.	.	.	.	.	.	.	.	.	.	.	8D 8DD/	.	8d\	.	8a/	8f#\	.	8ff#X\	8aa\	.
8GL 8GG/	8r	.	.	.	.	.	.	.	.	.	.	.	.	.	.	.	.	.	.	.	.	.	.	.	.	.	.	.	.	.	.	.	4G 4GG/	.	4d\	.	4b-/	4g\	.	4gg\	4bb-\	.
8r	8bb-L 8gg 8dd\	.	.	.	.	.	.	.	.	.	.	.	.	.	.	.	.	.	.	.	.	.	.	.	.	.	.	.	.	.	.	.	.	.	.	.	.	.	.	.	.	.
8E-J 8EE-/	8cccJ 8gg 8ee-\	.	.	.	.	.	.	.	.	.	.	.	.	.	.	.	.	.	.	.	.	.	.	.	.	.	.	.	.	.	.	.	8E- 8EE-/	.	8e-X 8cX\	.	8cc/	8g\	.	8gg\	8ccc\	.
*	*	*	*	*	*	*	*	*	*	*	*	*	*	*	*	*	*	*	*	*	*	*	*	*	*	*	*	*	*	*	*	*	*	*	*	*	*v	*v	*	*	*	*
!!LO:PB:g=original
=4	=4	=4	=4	=4	=4	=4	=4	=4	=4	=4	=4	=4	=4	=4	=4	=4	=4	=4	=4	=4	=4	=4	=4	=4	=4	=4	=4	=4	=4	=4	=4	=4	=4	=4	=4	=4	=4	=4	=4	=4	=4
*	*^	*	*	*	*	*	*	*	*	*	*	*	*	*	*	*	*	*	*	*	*	*	*	*	*	*	*	*	*	*	*	*	*	*	*^	*	*	*	*	*	*
8D 8DD/	8ddd 8ff#X 8dd\	4ryy	.	2.r	.	.	2.r	.	.	2.r	.	.	2.r	.	.	2.r	.	.	2.r	.	.	4r	.	.	4r	.	.	4r	.	.	4r	.	.	8D 8DD/	.	8d/	8d\	.	8dd 8f#/	.	8ff#X\	8ddd\	.
8r	8r	.	.	.	.	.	.	.	.	.	.	.	.	.	.	.	.	.	.	.	.	.	.	.	.	.	.	.	.	.	.	.	.	8r	.	8r	8ryy	.	8r	.	8r	8r	.
8c 8G 8E- 8C\	16ccc/LL	8gg\	.	.	.	.	.	.	.	.	.	.	.	.	.	.	.	.	.	.	.	8r	.	.	8r	.	.	8r	.	.	8r	.	.	8C 8CC/	.	8e-X/	8cX\	.	8ee- 8g/	.	8gg\	(16ccc\LL	.
.	16eee-/JJ	.	.	.	.	.	.	.	.	.	.	.	.	.	.	.	.	.	.	.	.	.	.	.	.	.	.	.	.	.	.	.	.	.	.	.	.	.	.	.	.	16eee-\JJ	.
8d 8A 8F#X 8D\	8ddd 8ff#X\	4.ryy	.	.	.	.	.	.	.	.	.	.	.	.	.	.	.	.	.	.	.	4r	.	<	4r	.	.	4r	.	.	4r	.	.	8D 8DD/	.	8d/	8d\	.	8dd 8f#/	.	8ff#\	8ddd\)	.
8r	8r	.	.	.	.	.	.	.	.	.	.	.	.	.	.	.	.	.	.	.	.	.	.	.	.	.	.	.	.	.	.	.	<	8r	.	8r	4ryy	.	8r	.	8r	8r	.
8B- 8BB-\	8dd 8g 8d/	.	.	.	.	.	.	.	.	.	.	.	.	.	.	.	.	.	.	.	.	[8B-\	Vir-	[[	[8d\	.	.	[8g/	.	.	[8dd\	Vir-	[[	8r	.	8r	.	.	8r	.	8r	8r	.
*	*v	*v	*	*	*	*	*	*	*	*	*	*	*	*	*	*	*	*	*	*	*	*	*	*	*	*	*	*	*	*	*	*	*	*	*	*v	*v	*	*	*	*	*	*
=5	=5	=5	=5	=5	=5	=5	=5	=5	=5	=5	=5	=5	=5	=5	=5	=5	=5	=5	=5	=5	=5	=5	=5	=5	=5	=5	=5	=5	=5	=5	=5	=5	=5	=5	=5	=5	=5	=5	=5	=5	=5
!	!	!	!	!	!	!	!	!	!	!	!	!	!	!	!	!	!	!	!	!	!	!	!LO:DY:rj	!	!	!	!	!	!	!	!	!	!	!	!	!	!	!	!	!	!
8B-L 8BB-\	8ddL 8g 8d/	.	2.ryy	.	.	2.ryy	.	.	2.ryy	.	.	2.ryy	.	.	2.ryy	.	.	2.ryy	.	.	8B-\]	.	f	8d\]	.	.	8g/]	.	.	8dd\]	.	f	2.r	.	2.r	.	2.r	.	2.r	2.r	.
8r	8r	.	.	.	.	.	.	.	.	.	.	.	.	.	.	.	.	.	.	.	8B-\	-go	.	8d\	.	.	8g/	.	.	8dd\	-go	.	.	.	.	.	.	.	.	.	.
8AJ 8AA\	8ccJ 8f#X 8d/	.	.	.	.	.	.	.	.	.	.	.	.	.	.	.	.	.	.	.	8A\	vir-	.	8d\	.	.	8f#X/	.	.	8cc\	vir-	.	.	.	.	.	.	.	.	.	.
8GL 8GG/	8r	.	.	.	.	.	.	.	.	.	.	.	.	.	.	.	.	.	.	.	8G\	-gi-	.	8d\	.	.	8g/	.	.	8cc\	-gi-	.	.	.	.	.	.	.	.	.	.
8r	8b-L 8g 8d/	.	.	.	.	.	.	.	.	.	.	.	.	.	.	.	.	.	.	.	8G\	-num	.	8d\	.	.	8g/	.	.	8b-\	-num	.	.	.	.	.	.	.	.	.	.
8DJ 8DD/	8aJ 8f# 8d/	.	.	.	.	.	.	.	.	.	.	.	.	.	.	.	.	.	.	.	8D\	proe-	.	8d\	.	.	8f#/	.	.	8a\	proe-	.	.	.	.	.	.	.	.	.	.
=6	=6	=6	=6	=6	=6	=6	=6	=6	=6	=6	=6	=6	=6	=6	=6	=6	=6	=6	=6	=6	=6	=6	=6	=6	=6	=6	=6	=6	=6	=6	=6	=6	=6	=6	=6	=6	=6	=6	=6	=6	=6
8E-L 8EE-/	8r	.	2.ryy	.	.	2.ryy	.	.	2.ryy	.	.	2.ryy	.	.	2.ryy	.	.	2.ryy	.	.	(>4E-\	-cle-	.	(4B-\	.	.	(4g/	.	.	(4g/	-cle-	.	2.ryy	.	2.ryy	.	2.ryy	.	2.ryy	2.ryy	.
8r	8gL 8e- 8B-/	.	.	.	.	.	.	.	.	.	.	.	.	.	.	.	.	.	.	.	.	.	.	.	.	.	.	.	.	.	.	.	.	.	.	.	.	.	.	.	.
8CJ 8CC/	8aJ 8e- 8c/	.	.	.	.	.	.	.	.	.	.	.	.	.	.	.	.	.	.	.	8C/)	.	.	8c\)	.	.	8e-/)	.	.	8a/)	.	.	.	.	.	.	.	.	.	.	.
4D 4DD/	4f#X 4d 4A/	.	.	.	.	.	.	.	.	.	.	.	.	.	.	.	.	.	.	.	4.D\	-ra	.	4.A\	.	.	4.d/	.	.	4.f#X/	-ra	.	.	.	.	.	.	.	.	.	.
8r	8r	.	.	.	.	.	.	.	.	.	.	.	.	.	.	.	.	.	.	.	.	.	.	.	.	.	.	.	.	.	.	.	.	.	.	.	.	.	.	.	.
=7	=7	=7	=7	=7	=7	=7	=7	=7	=7	=7	=7	=7	=7	=7	=7	=7	=7	=7	=7	=7	=7	=7	=7	=7	=7	=7	=7	=7	=7	=7	=7	=7	=7	=7	=7	=7	=7	=7	=7	=7	=7
2.r	2.r	.	2.ryy	.	.	2.ryy	.	.	2.ryy	.	.	2.ryy	.	.	2.ryy	.	.	2.ryy	.	.	4BB-/	Mi-	.	4G/	.	.	4d/	.	.	4g/	Mi-	.	2.ryy	.	2.ryy	.	2.ryy	.	2.ryy	2.ryy	.
.	.	.	.	.	.	.	.	.	.	.	.	.	.	.	.	.	.	.	.	.	8F#X\	-hi	.	8d\	.	.	8d/	.	.	8a/	-hi	.	.	.	.	.	.	.	.	.	.
.	.	.	.	.	.	.	.	.	.	.	.	.	.	.	.	.	.	.	.	.	8G\	jam	.	8d\	.	.	8g/	.	.	8b-\	jam	<	.	.	.	.	.	.	.	.	.
.	.	.	.	.	.	.	.	.	.	.	.	.	.	.	.	.	.	.	.	.	8G\	su-	.	8d\	.	.	8g/	.	.	8b-\	su-	.	.	.	.	.	.	.	.	.	.
.	.	.	.	.	.	.	.	.	.	.	.	.	.	.	.	.	.	.	.	.	8E-\	-a	.	8c\	.	.	8g/	.	.	8cc\	-a	[[	.	.	.	.	.	.	.	.	.
!!LO:PB:g=original
=8	=8	=8	=8	=8	=8	=8	=8	=8	=8	=8	=8	=8	=8	=8	=8	=8	=8	=8	=8	=8	=8	=8	=8	=8	=8	=8	=8	=8	=8	=8	=8	=8	=8	=8	=8	=8	=8	=8	=8	=8	=8
2.r	2.r	.	2.r	.	.	2.r	.	.	2.r	.	.	2.r	.	.	2.r	.	.	2.r	.	.	4.D\	ma-	.	4.A\	.	.	4.f#X/	.	.	(4dd\	ma-	>	2.r	.	2.r	.	2.r	.	2.r	2.r	.
.	.	.	.	.	.	.	.	.	.	.	.	.	.	.	.	.	.	.	.	.	.	.	.	.	.	.	.	.	.	16cc\LL	.	.	.	.	.	.	.	.	.	.	.
.	.	.	.	.	.	.	.	.	.	.	.	.	.	.	.	.	.	.	.	.	.	.	.	.	.	.	.	.	.	16b-\JJ)	.	]	.	.	.	.	.	.	.	.	.
.	.	.	.	.	.	.	.	.	.	.	.	.	.	.	.	.	.	.	.	.	4.D\	-ra	.	4.d\	.	.	4.f#/	.	.	4.a/	-ra	.	.	.	.	.	.	.	.	.	.
=9	=9	=9	=9	=9	=9	=9	=9	=9	=9	=9	=9	=9	=9	=9	=9	=9	=9	=9	=9	=9	=9	=9	=9	=9	=9	=9	=9	=9	=9	=9	=9	=9	=9	=9	=9	=9	=9	=9	=9	=9	=9
*^	*	*	*	*	*	*	*	*	*	*	*	*	*	*	*	*	*	*	*	*	*	*	*	*	*	*	*	*	*	*	*	*	*	*	*	*	*	*	*	*	*
!	!	!	!LO:DY:rj	!	!	!	!	!	!	!	!	!LO:DY:b:rj	!	!	!	!	!	!	!	!	!LO:DY:rj	!	!	!LO:DY:rj	!	!	!	!	!	!	!	!	!LO:DY:rj	!	!	!	!	!	!	!	!	!
4.C/	8C\L	8r	f	2.r	.	.	2.r	.	.	4.C^>/	fac	f	4.c\	.	.	4.g/	.	.	4.ee-^\	fac	f	4.C^>/	fac	f	2.r	.	.	4.g^>/	.	.	4.ee-^\	fac	f	2.ryy	.	2.ryy	.	2.ryy	.	2.ryy	2.ryy	.
.	8c\	8ee-L 8cc 8g 8e-/	.	.	.	.	.	.	.	.	.	.	.	.	.	.	.	.	.	.	.	.	.	.	.	.	.	.	.	.	.	.	.	.	.	.	.	.	.	.	.	.
.	8c\J	8ee-J 8cc 8g 8e-/	.	.	.	.	.	.	.	.	.	.	.	.	.	.	.	.	.	.	.	.	.	.	.	.	.	.	.	.	.	.	.	.	.	.	.	.	.	.	.	.
4.BB-/	8BB-\L	8r	.	.	.	.	.	.	.	4.BB-^>/	me	.	4.d\	.	.	4.g/	.	.	4.dd^\	me	.	4.BB-^>/	me	.	.	.	.	4.g^>/	.	.	4.dd^\	me	.	.	.	.	.	.	.	.	.	.
.	8B-\	8ddL 8g 8d/	.	.	.	.	.	.	.	.	.	.	.	.	.	.	.	.	.	.	.	.	.	.	.	.	.	.	.	.	.	.	.	.	.	.	.	.	.	.	.	.
.	8B-\J	8ddJ 8g 8d/	.	.	.	.	.	.	.	.	.	.	.	.	.	.	.	.	.	.	.	.	.	.	.	.	.	.	.	.	.	.	.	.	.	.	.	.	.	.	.	.
=10	=10	=10	=10	=10	=10	=10	=10	=10	=10	=10	=10	=10	=10	=10	=10	=10	=10	=10	=10	=10	=10	=10	=10	=10	=10	=10	=10	=10	=10	=10	=10	=10	=10	=10	=10	=10	=10	=10	=10	=10	=10	=10
4.AA/	8AA\L	8r	.	2.r	.	.	2.r	.	.	(>4AA^>/	fac	.	4.d\	.	.	4.f#X/	.	.	(4dd^\	fac	.	(>4AA^>/	fac	.	4.d\	.	.	4.f#X^>/	.	.	(4dd\	fac	>	2.ryy	.	2.ryy	.	2.ryy	.	2.ryy	2.ryy	.
.	8A\	8ddL 8f#X 8d/	.	.	.	.	.	.	.	.	.	.	.	.	.	.	.	.	.	.	.	.	.	.	.	.	.	.	.	.	.	.	.	.	.	.	.	.	.	.	.	.
.	8A\J	8ccJ 8f# 8d/	.	.	.	.	.	.	.	8A\)	.	.	.	.	.	.	.	.	8cc\)	.	.	8A\)	.	.	.	.	.	.	.	.	8cc\)	.	]	.	.	.	.	.	.	.	.	.
4.GG/	8GG\L	8r	.	.	.	.	.	.	.	4.G\	me	.	4.d\	.	.	4.g/	.	.	4.b-\	me	.	4.G\	me	.	4.d\	.	.	4.g/	.	.	4.b-\	me	.	.	.	.	.	.	.	.	.	.
.	8G\	8b-L 8g 8d/	.	.	.	.	.	.	.	.	.	.	.	.	.	.	.	.	.	.	.	.	.	.	.	.	.	.	.	.	.	.	.	.	.	.	.	.	.	.	.	.
.	8G\J	8b-J 8g 8d/	.	.	.	.	.	.	.	.	.	.	.	.	.	.	.	.	.	.	.	.	.	.	.	.	.	.	.	.	.	.	.	.	.	.	.	.	.	.	.	.
=11	=11	=11	=11	=11	=11	=11	=11	=11	=11	=11	=11	=11	=11	=11	=11	=11	=11	=11	=11	=11	=11	=11	=11	=11	=11	=11	=11	=11	=11	=11	=11	=11	=11	=11	=11	=11	=11	=11	=11	=11	=11	=11
!	!	!	!	!	!	!	!	!	!	!	!	!	!	!	!	!	!	!	!	!	!	!	!	!LO:DY:rj	!	!	!	!	!	!	!	!	!LO:DY:b:rj:t=p.	!	!	!	!	!	!	!	!	!
4.C/	8C\L	8r	.	2.r	.	.	2.r	.	.	2.r	.	.	2.r	.	.	2.r	.	.	2.r	.	.	4.C/	te-	p	4.e-\	.	.	4.g/	.	.	4.a/	te-	p	2.ryy	.	2.ryy	.	2.ryy	.	2.ryy	2.ryy	.
.	8c\	8aL 8g 8e-/	.	.	.	.	.	.	.	.	.	.	.	.	.	.	.	.	.	.	.	.	.	.	.	.	.	.	.	.	.	.	.	.	.	.	.	.	.	.	.	.
.	8c\J	8aJ 8g 8e-/	.	.	.	.	.	.	.	.	.	.	.	.	.	.	.	.	.	.	.	.	.	.	.	.	.	.	.	.	.	.	.	.	.	.	.	.	.	.	.	.
4.C#X/	8C#\L	8r	.	.	.	.	.	.	.	.	.	.	.	.	.	.	.	.	.	.	.	4C#X/	-cum	.	4en\	.	.	4g/	.	.	4a/	-cum	.	.	.	.	.	.	.	.	.	.
.	8c#X\	8aL 8g 8en/	.	.	.	.	.	.	.	.	.	.	.	.	.	.	.	.	.	.	.	.	.	.	.	.	.	.	.	.	.	.	.	.	.	.	.	.	.	.	.	.
.	8c#\J	8aJ 8g 8e/	.	.	.	.	.	.	.	.	.	.	.	.	.	.	.	.	.	.	.	8C#/	plan-	.	8e\	.	.	8g/	.	.	8a/	plan-	.	.	.	.	.	.	.	.	.	.
*v	*v	*	*	*	*	*	*	*	*	*	*	*	*	*	*	*	*	*	*	*	*	*	*	*	*	*	*	*	*	*	*	*	*	*	*	*	*	*	*	*	*	*
=12	=12	=12	=12	=12	=12	=12	=12	=12	=12	=12	=12	=12	=12	=12	=12	=12	=12	=12	=12	=12	=12	=12	=12	=12	=12	=12	=12	=12	=12	=12	=12	=12	=12	=12	=12	=12	=12	=12	=12	=12	=12
*	*^	*	*	*	*	*	*	*	*	*	*	*	*	*	*	*	*	*	*	*	*	*	*	*	*	*	*	*	*	*	*	*	*	*	*	*	*	*	*	*	*
8D\	8r	4ryy	.	2.r	.	.	2.r	.	.	4r	.	.	4r	.	.	4r	.	.	4r	.	.	4.D\	-ge-	.	4.d\	.	.	(4g/	.	.	4.a/	-ge-	.	2.ryy	.	2.ryy	.	2.ryy	.	2.ryy	2.ryy	.
8r	8aL 8g 8d/	.	.	.	.	.	.	.	.	.	.	.	.	.	.	.	.	.	.	.	.	.	.	.	.	.	.	.	.	.	.	.	.	.	.	.	.	.	.	.	.	.
8D 8DD/	8a/J	16f#X\LL	.	.	.	.	.	.	.	8r	.	.	8r	.	.	8r	.	.	8r	.	.	.	.	.	.	.	.	16f#X/LL	.	.	.	.	.	.	.	.	.	.	.	.	.	.
.	.	16en\JJ	.	.	.	.	.	.	.	.	.	.	.	.	.	.	.	.	.	.	.	.	.	.	.	.	.	16en/JJ)	.	.	.	.	.	.	.	.	.	.	.	.	.	.
4D 4DD/	4dd 4f# 4d/	4.ryy	.	.	.	.	.	.	.	4r	.	.	4r	.	<	4r	.	.	4r	.	.	4D\	-re	.	4d\	.	.	4f#/	.	.	4dd\	-re	.	.	.	.	.	.	.	.	.	.
8B- 8BB-\	8dd 8g 8d/	.	.	.	.	.	.	.	.	[8B-\	Vir-	.	[8d\	.	[[	[>8g/	.	.	[8dd\	Vir-	<[	8r	.	.	8r	.	.	8r	.	.	8r	.	.	.	.	.	.	.	.	.	.	.
*	*v	*v	*	*	*	*	*	*	*	*	*	*	*	*	*	*	*	*	*	*	*	*	*	*	*	*	*	*	*	*	*	*	*	*	*	*	*	*	*	*	*	*
!!LO:PB:g=original
=13	=13	=13	=13	=13	=13	=13	=13	=13	=13	=13	=13	=13	=13	=13	=13	=13	=13	=13	=13	=13	=13	=13	=13	=13	=13	=13	=13	=13	=13	=13	=13	=13	=13	=13	=13	=13	=13	=13	=13	=13	=13
!	!	!	!	!	!	!	!	!	!	!	!	!	!	!	!	!	!	!	!	!LO:DY:rj	!	!	!	!	!	!	!	!	!	!	!	!	!	!	!	!	!	!	!	!	!
8B-L 8BB-\	8ddL 8g 8d/	.	2.r	.	.	2.r	.	.	8B-\]	.	f	8d\]	.	.	8g/]	.	.	8dd\]	.	f	2.ryy	.	.	2.ryy	.	.	2.ryy	.	.	2.ryy	.	.	2.ryy	.	2.ryy	.	2.ryy	.	2.ryy	2.ryy	.
8r	8r	.	.	.	.	.	.	.	8B-\	-go	.	8d\	.	.	8g/	.	.	8dd\	-go	.	.	.	.	.	.	.	.	.	.	.	.	.	.	.	.	.	.	.	.	.	.
8AJ 8AA\	8ccJ 8f#X 8d/	.	.	.	.	.	.	.	8A\	vir-	.	8d\	.	.	8f#X/	.	.	8cc\	vir-	.	.	.	.	.	.	.	.	.	.	.	.	.	.	.	.	.	.	.	.	.	.
8GL 8GG/	8r	.	.	.	.	.	.	.	8G\	-gi-	.	8d\	.	.	8g/	.	.	8cc\	-gi-	.	.	.	.	.	.	.	.	.	.	.	.	.	.	.	.	.	.	.	.	.	.
8r	8b-L 8g 8d/	.	.	.	.	.	.	.	8G\	-num	.	8d\	.	.	8g/	.	.	8b-\	-num	.	.	.	.	.	.	.	.	.	.	.	.	.	.	.	.	.	.	.	.	.	.
8DJ 8DD/	8aJ 8f# 8d/	.	.	.	.	.	.	.	8D\	proe-	.	8d\	.	.	8f#/	.	.	8a/	proe-	.	.	.	.	.	.	.	.	.	.	.	.	.	.	.	.	.	.	.	.	.	.
=14	=14	=14	=14	=14	=14	=14	=14	=14	=14	=14	=14	=14	=14	=14	=14	=14	=14	=14	=14	=14	=14	=14	=14	=14	=14	=14	=14	=14	=14	=14	=14	=14	=14	=14	=14	=14	=14	=14	=14	=14	=14
8E-L 8EE-/	8r	.	2.ryy	.	.	2.ryy	.	.	(4E-\	-cle-	.	(4B-\	.	.	(4g/	.	.	(4g/	-cle-	>	2.ryy	.	.	2.ryy	.	.	2.ryy	.	.	2.ryy	.	.	2.ryy	.	2.ryy	.	2.ryy	.	2.ryy	2.ryy	.
8r	8gL 8e- 8B-/	.	.	.	.	.	.	.	.	.	.	.	.	.	.	.	.	.	.	.	.	.	.	.	.	.	.	.	.	.	.	.	.	.	.	.	.	.	.	.	.
8CJ 8CC/	8aJ 8e- 8c/	.	.	.	.	.	.	.	8C/)	.	.	8c\)	.	.	8e-/)	.	.	8a/)	.	.	.	.	.	.	.	.	.	.	.	.	.	.	.	.	.	.	.	.	.	.	.
4D 4DD/	4f#X 4d 4A/	.	.	.	.	.	.	.	(4D\	-ra	.	4.A\	.	.	4.d/	.	.	4.f#X/	-ra	]	.	.	.	.	.	.	.	.	.	.	.	.	.	.	.	.	.	.	.	.	.
8r	8r	.	.	.	.	.	.	.	8C/)	.	.	.	.	.	.	.	.	.	.	.	.	.	.	.	.	.	.	.	.	.	.	.	.	.	.	.	.	.	.	.	.
=15	=15	=15	=15	=15	=15	=15	=15	=15	=15	=15	=15	=15	=15	=15	=15	=15	=15	=15	=15	=15	=15	=15	=15	=15	=15	=15	=15	=15	=15	=15	=15	=15	=15	=15	=15	=15	=15	=15	=15	=15	=15
2.r	2.r	.	2.ryy	.	.	2.ryy	.	.	4BB-/	mi-	.	4G/	.	.	4d/	.	.	4g/	mi-	.	2.ryy	.	.	2.ryy	.	.	2.ryy	.	.	2.ryy	.	.	2.ryy	.	2.ryy	.	2.ryy	.	2.ryy	2.ryy	.
.	.	.	.	.	.	.	.	.	8F#X\	-hi	.	8d\	.	.	8d/	.	.	8a/	-hi	<	.	.	.	.	.	.	.	.	.	.	.	.	.	.	.	.	.	.	.	.	.
.	.	.	.	.	.	.	.	.	8G\	jam	.	8d\	.	.	8g/	.	.	8b-\	jam	.	.	.	.	.	.	.	.	.	.	.	.	.	.	.	.	.	.	.	.	.	.
.	.	.	.	.	.	.	.	.	8G\	su	.	8d\	.	.	8g/	.	.	8b-\	su	.	.	.	.	.	.	.	.	.	.	.	.	.	.	.	.	.	.	.	.	.	.
.	.	.	.	.	.	.	.	.	8E-\	a-	.	8c\	.	.	8g/	.	.	8cc\	a-	[[	.	.	.	.	.	.	.	.	.	.	.	.	.	.	.	.	.	.	.	.	.
=16	=16	=16	=16	=16	=16	=16	=16	=16	=16	=16	=16	=16	=16	=16	=16	=16	=16	=16	=16	=16	=16	=16	=16	=16	=16	=16	=16	=16	=16	=16	=16	=16	=16	=16	=16	=16	=16	=16	=16	=16	=16
2.r	2.r	.	2.ryy	.	.	2.ryy	.	.	4.D\	-ma-	.	4.A\	.	.	4.f#X/	.	.	(4dd\	-ma-	>	2.ryy	.	.	2.ryy	.	.	2.ryy	.	.	2.ryy	.	.	2.ryy	.	2.ryy	.	2.ryy	.	2.ryy	2.ryy	.
.	.	.	.	.	.	.	.	.	.	.	.	.	.	.	.	.	.	16cc\LL	.	.	.	.	.	.	.	.	.	.	.	.	.	.	.	.	.	.	.	.	.	.	.
.	.	.	.	.	.	.	.	.	.	.	.	.	.	.	.	.	.	16b-\JJ)	.	.	.	.	.	.	.	.	.	.	.	.	.	.	.	.	.	.	.	.	.	.	.
.	.	f	.	.	.	.	.	.	4.D\	-ra	.	4.d\	.	.	4.f#/	.	.	4.a/	-ra	]	.	.	.	.	.	.	.	.	.	.	.	.	.	.	.	.	.	.	.	.	.
=17	=17	=17	=17	=17	=17	=17	=17	=17	=17	=17	=17	=17	=17	=17	=17	=17	=17	=17	=17	=17	=17	=17	=17	=17	=17	=17	=17	=17	=17	=17	=17	=17	=17	=17	=17	=17	=17	=17	=17	=17	=17
*^	*	*	*	*	*	*	*	*	*	*	*	*	*	*	*	*	*	*	*	*	*	*	*	*	*	*	*	*	*	*	*	*	*	*	*	*	*	*	*	*	*
!	!	!	!	!	!	!	!	!	!	!	!	!	!	!	!	!	!	!	!	!	!LO:DY:rj	!	!	!	!	!	!	!	!	!	!	!	!	!	!	!	!	!	!	!	!	!
4.C/	8C\L	8r	.	2.ryy	.	.	2.ryy	.	.	4.C^/	fac	f	2.r	.	.	4.g^>/	.	.	4.ee-^\	fac	f	2.ryy	.	.	2.ryy	.	.	2.ryy	.	.	2.ryy	.	.	2.ryy	.	2.ryy	.	2.ryy	.	2.ryy	2.ryy	.
.	8c\	8ee-L 8cc 8g 8e-/	.	.	.	.	.	.	.	.	.	.	.	.	.	.	.	.	.	.	.	.	.	.	.	.	.	.	.	.	.	.	.	.	.	.	.	.	.	.	.	.
.	8c\J	8ee-J 8cc 8g 8e-/	.	.	.	.	.	.	.	.	.	.	.	.	.	.	.	.	.	.	.	.	.	.	.	.	.	.	.	.	.	.	.	.	.	.	.	.	.	.	.	.
4.BB-/	8BB-\L	8r	.	.	.	.	.	.	.	4.BB-^/	me	.	.	.	.	4.g^>/	.	.	4.dd^\	me	.	.	.	.	.	.	.	.	.	.	.	.	.	.	.	.	.	.	.	.	.	.
.	8B-\	8ddL 8g 8d/	.	.	.	.	.	.	.	.	.	.	.	.	.	.	.	.	.	.	.	.	.	.	.	.	.	.	.	.	.	.	.	.	.	.	.	.	.	.	.	.
.	8B-\J	8ddJ 8g 8d/	.	.	.	.	.	.	.	.	.	.	.	.	.	.	.	.	.	.	.	.	.	.	.	.	.	.	.	.	.	.	.	.	.	.	.	.	.	.	.	.
!!LO:PB:g=original
=18	=18	=18	=18	=18	=18	=18	=18	=18	=18	=18	=18	=18	=18	=18	=18	=18	=18	=18	=18	=18	=18	=18	=18	=18	=18	=18	=18	=18	=18	=18	=18	=18	=18	=18	=18	=18	=18	=18	=18	=18	=18	=18
4.AA/	8AA\L	8r	.	2.r	.	.	2.r	.	.	(>4AA/	fac	.	4.d\	.	.	4.f#X/	.	.	(4dd\	fac	.	(>4AA/	.	.	4.d\	.	.	4.f#X/	.	.	(4dd^\	fac	.	2.ryy	.	2.ryy	.	2.ryy	.	2.ryy	2.ryy	.
.	8A\	8ddL 8f#X 8d/	.	.	.	.	.	.	.	.	.	.	.	.	.	.	.	.	.	.	.	.	.	.	.	.	.	.	.	.	.	.	.	.	.	.	.	.	.	.	.	.
.	8A\J	8ccJ 8f# 8d/	.	.	.	.	.	.	.	8A\)	.	.	.	.	.	.	.	.	8cc\)	.	.	8A\)	.	.	.	.	.	.	.	.	8cc\)	.	.	.	.	.	.	.	.	.	.	.
4.GG/	8GG\L	8r	.	.	.	.	.	.	.	4.G\	me	.	4.d\	.	.	4.g/	.	.	4.b-\	me	.	4.G\	.	.	4.d\	.	.	4.g/	.	.	4.b-\	me	.	.	.	.	.	.	.	.	.	.
.	8G\	8b-L 8g 8d/	.	.	.	.	.	.	.	.	.	.	.	.	.	.	.	.	.	.	.	.	.	.	.	.	.	.	.	.	.	.	.	.	.	.	.	.	.	.	.	.
.	8G\J	8b-J 8g 8d/	.	.	.	.	.	.	.	.	.	.	.	.	.	.	.	.	.	.	.	.	.	.	.	.	.	.	.	.	.	.	.	.	.	.	.	.	.	.	.	.
=19	=19	=19	=19	=19	=19	=19	=19	=19	=19	=19	=19	=19	=19	=19	=19	=19	=19	=19	=19	=19	=19	=19	=19	=19	=19	=19	=19	=19	=19	=19	=19	=19	=19	=19	=19	=19	=19	=19	=19	=19	=19	=19
!	!	!	!	!	!	!	!	!	!	!	!	!LO:DY:rj	!	!	!	!	!	!	!	!	!LO:DY:rj	!	!	!	!	!	!	!	!	!	!	!	!	!	!	!	!	!	!	!	!	!
4.C/	8C\L	8r	.	2.ryy	.	.	2.ryy	.	.	4.C/	te-	p	4.e-\	.	.	4.g/	.	.	4.a/	te-	p	2.r	.	.	2.r	.	.	2.r	.	.	2.r	.	.	2.ryy	.	2.ryy	.	2.ryy	.	2.ryy	2.ryy	.
.	8c\	8aL 8g 8e-/	.	.	.	.	.	.	.	.	.	.	.	.	.	.	.	.	.	.	.	.	.	.	.	.	.	.	.	.	.	.	.	.	.	.	.	.	.	.	.	.
.	8c\J	8aJ 8g 8e-/	.	.	.	.	.	.	.	.	.	.	.	.	.	.	.	.	.	.	.	.	.	.	.	.	.	.	.	.	.	.	.	.	.	.	.	.	.	.	.	.
4.C#X/	8C#\L	8r	.	.	.	.	.	.	.	4C#X/	-cum	.	4en\	.	.	4g/	.	.	4a/	-cum	.	.	.	.	.	.	.	.	.	.	.	.	.	.	.	.	.	.	.	.	.	.
.	8c#X\	8aL 8g 8en/	.	.	.	.	.	.	.	.	.	.	.	.	.	.	.	.	.	.	.	.	.	.	.	.	.	.	.	.	.	.	.	.	.	.	.	.	.	.	.	.
.	8c#\J	8aJ 8g 8e/	.	.	.	.	.	.	.	8C#/	plan-	.	8e\	.	.	8g/	.	.	8a/	plan-	.	.	.	.	.	.	.	.	.	.	.	.	.	.	.	.	.	.	.	.	.	.
*v	*v	*	*	*	*	*	*	*	*	*	*	*	*	*	*	*	*	*	*	*	*	*	*	*	*	*	*	*	*	*	*	*	*	*	*	*	*	*	*	*	*	*
=20	=20	=20	=20	=20	=20	=20	=20	=20	=20	=20	=20	=20	=20	=20	=20	=20	=20	=20	=20	=20	=20	=20	=20	=20	=20	=20	=20	=20	=20	=20	=20	=20	=20	=20	=20	=20	=20	=20	=20	=20	=20
*	*^	*	*	*	*	*	*	*	*	*	*	*	*	*	*	*	*	*	*	*	*	*	*	*	*	*	*	*	*	*	*	*	*	*	*	*	*	*	*	*	*
8D\	8r	4ryy	.	2.ryy	.	.	2.ryy	.	.	4.D\	-ge-	.	4.d\	.	.	(4g/	.	.	4.a/	-ge-	.	4r	.	.	4r	.	.	4r	.	.	4r	.	.	2.ryy	.	2.ryy	.	2.ryy	.	2.ryy	2.ryy	.
8r	8aL 8g 8d/	.	.	.	.	.	.	.	.	.	.	.	.	.	.	.	.	.	.	.	.	.	.	.	.	.	.	.	.	.	.	.	.	.	.	.	.	.	.	.	.	.
8D 8DD/	8a/J	16f#X\LL	.	.	.	.	.	.	.	.	.	.	.	.	.	16f#X/LL	.	.	.	.	.	8r	.	.	8r	.	.	8r	.	.	8r	.	.	.	.	.	.	.	.	.	.	.
.	.	16en\JJ	.	.	.	.	.	.	.	.	.	.	.	.	.	16en/JJ)	.	.	.	.	.	.	.	.	.	.	.	.	.	.	.	.	.	.	.	.	.	.	.	.	.	.
4D 4DD/	4dd 4f#/	4.ryy	.	.	.	.	.	.	.	(8D\L	-re	.	4d\	.	.	4f#/	.	.	4dd\	-re	.	4r	.	.	4r	.	.	4r	.	.	4r	.	<	.	.	.	.	.	.	.	.	.
.	.	.	.	.	.	.	.	.	.	8d\J)	.	.	.	.	.	.	.	.	.	.	.	.	.	.	.	.	.	.	.	.	.	.	.	.	.	.	.	.	.	.	.	.
!	!	!	!	!	!	!	!	!	!	!	!	!	!	!	!	!	!	!	!	!	!	!	!	!LO:HP:b	!	!	!	!	!	!	!	!	!	!	!	!	!	!	!	!	!	!
8r	8r	.	.	.	.	.	.	.	.	(8c\	fac	.	[8d\	.	.	8f#/	.	.	8dd\	fac	<[	(8c\	fac	<[	[8d\	.	.	(8f#X/	.	.	8dd\	fac	[[	.	.	.	.	.	.	.	.	.
*	*v	*v	*	*	*	*	*	*	*	*	*	*	*	*	*	*	*	*	*	*	*	*	*	*	*	*	*	*	*	*	*	*	*	*	*	*	*	*	*	*	*	*
=21	=21	=21	=21	=21	=21	=21	=21	=21	=21	=21	=21	=21	=21	=21	=21	=21	=21	=21	=21	=21	=21	=21	=21	=21	=21	=21	=21	=21	=21	=21	=21	=21	=21	=21	=21	=21	=21	=21	=21	=21	=21
!	!	!	!	!	!	!	!	!	!	!	!	!	!	!	!	!	!	!	!	!LO:DY:rj	!	!	!LO:DY:b:rj	!	!	!	!	!	!	!	!	!LO:DY:rj	!	!	!	!	!	!	!	!	!
2.r	2.r	.	2.ryy	.	.	2.ryy	.	.	4B-\)	.	.	4d\]	.	.	4g/	.	.	(8.dd\L	.	f	4B-\)	.	f	4d\]	.	.	4g/)	.	.	(8.dd\L	.	f	2.ryy	.	2.ryy	.	2.ryy	.	2.ryy	2.ryy	.
.	.	.	.	.	.	.	.	.	.	.	.	.	.	.	.	.	.	16ee-\L	.	.	.	.	.	.	.	.	.	.	.	16ee-\L	.	.	.	.	.	.	.	.	.	.	.
.	.	.	.	.	.	.	.	.	8B-\	me	.	8d\	.	.	8g/	.	.	16dd\JJ)	.	.	8B-\	me	.	8d\	.	.	8g/	.	.	16dd\JJ)	.	.	.	.	.	.	.	.	.	.	.
.	.	.	.	.	.	.	.	.	.	.	.	.	.	.	.	.	.	16g/	me	.	.	.	.	.	.	.	.	.	.	16g/	me	.	.	.	.	.	.	.	.	.	.
.	.	.	.	.	.	.	.	.	(8.Bn\L	te-	.	(8.d\L	.	.	4g/	.	.	4gg\	te-	.	(8.Bn\L	te-	.	(8.d\L	.	.	4g/	.	.	4gg\	te-	.	.	.	.	.	.	.	.	.	.
.	.	.	.	.	.	.	.	.	16G\Jk)	.	.	16Bn\Jk)	.	.	.	.	.	.	.	.	16G\Jk)	.	.	16Bn\Jk)	.	.	.	.	.	.	.	.	.	.	.	.	.	.	.	.	.
.	.	.	.	.	.	.	.	.	(16A\LL	-cum	.	(16c\LL	.	.	8g/	.	.	8ff\	-cum	.	(16A\LL	-cum	.	(16c\LL	.	.	8g/	.	.	8ff\	-cum	.	.	.	.	.	.	.	.	.	.
.	.	.	.	.	.	.	.	.	16B\JJ)	.	.	16d\JJ)	.	.	.	.	.	.	.	.	16B\JJ)	.	.	16d\JJ)	.	.	.	.	.	.	.	.	.	.	.	.	.	.	.	.	.
=22	=22	=22	=22	=22	=22	=22	=22	=22	=22	=22	=22	=22	=22	=22	=22	=22	=22	=22	=22	=22	=22	=22	=22	=22	=22	=22	=22	=22	=22	=22	=22	=22	=22	=22	=22	=22	=22	=22	=22	=22	=22
2.r	2.r	.	2.ryy	.	.	2.ryy	.	.	4c\	fac	.	4c\	.	.	4g/	.	.	(8.ee-\L	fac	.	4c\	fac	.	4c\	.	.	4g/	.	.	(8.ee-\L	fac	.	2.ryy	.	2.ryy	.	2.ryy	.	2.ryy	2.ryy	.
.	.	.	.	.	.	.	.	.	.	.	.	.	.	.	.	.	.	16cc\Jk)	.	.	.	.	.	.	.	.	.	.	.	16cc\Jk)	.	.	.	.	.	.	.	.	.	.	.
.	.	.	.	.	.	.	.	.	8B-\	me	.	8c\	.	.	8g/	.	.	(16dd\LL	me	.	8B-\	me	.	8c\	.	.	8g/	.	.	(16dd\LL	me	.	.	.	.	.	.	.	.	.	.
.	.	.	.	.	.	.	.	.	.	.	.	.	.	.	.	.	.	16ee-\JJ)	.	.	.	.	.	.	.	.	.	.	.	16ee-\JJ)	.	.	.	.	.	.	.	.	.	.	.
.	.	.	.	.	.	.	.	.	(8.A\L	te-	.	(8.c\L	.	.	4f/	.	.	4ff\	te-	.	(8.A\L	te-	.	(8.c\L	.	.	4f/	.	.	4ff\	te-	.	.	.	.	.	.	.	.	.	.
.	.	.	.	.	.	.	.	.	16F\Jk)	.	.	16A\Jk)	.	.	.	.	.	.	.	.	16F\Jk)	.	.	16A\Jk)	.	.	.	.	.	.	.	.	.	.	.	.	.	.	.	.	.
.	.	.	.	.	.	.	.	.	(16G\LL	-cum	.	(16B-\LL	.	.	8f/	.	.	8ee-\	-cum	.	(16G\LL	-cum	.	(16B-\LL	.	.	8f/	.	.	8ee-\	-cum	.	.	.	.	.	.	.	.	.	.
.	.	.	.	.	.	.	.	.	16A\JJ)	.	.	16c\JJ)	.	.	.	.	.	.	.	.	16A\JJ)	.	.	16c\JJ)	.	.	.	.	.	.	.	.	.	.	.	.	.	.	.	.	.
!!LO:PB:g=original
=23	=23	=23	=23	=23	=23	=23	=23	=23	=23	=23	=23	=23	=23	=23	=23	=23	=23	=23	=23	=23	=23	=23	=23	=23	=23	=23	=23	=23	=23	=23	=23	=23	=23	=23	=23	=23	=23	=23	=23	=23	=23
2.r	2.r	.	2.r	.	.	2.r	.	.	(8.B-\L	.	.	4d\	.	.	8f/	.	.	(8.dd\L	.	.	(8.B-\L	fac	.	4d\	.	.	8f/	.	.	(8.dd\L	fac	.	2.ryy	.	2.ryy	.	2.ryy	.	2.ryy	2.ryy	.
.	.	.	.	.	.	.	.	.	.	.	.	.	.	.	8r	.	.	.	.	.	.	.	.	.	.	.	8r	.	.	.	.	.	.	.	.	.	.	.	.	.	.
.	.	.	.	.	.	.	.	.	16F#X\Jk)	.	.	.	.	.	.	.	.	16a\Jk)	.	.	16F#X\Jk)	.	.	.	.	.	.	.	.	16a\Jk)	.	.	.	.	.	.	.	.	.	.	.
.	.	.	.	.	.	.	.	.	(16G\LL	.	.	8d\	.	.	8r	.	.	(16b-\LL	.	.	(16G\LL	me	.	8d\	.	.	8r	.	.	(16b-/LL	me	.	.	.	.	.	.	.	.	.	.
.	.	.	.	.	.	.	.	.	16Fn\JJ)	.	.	.	.	.	.	.	.	16a\JJ)	.	.	16Fn\JJ)	.	.	.	.	.	.	.	.	16a/JJ)	.	.	.	.	.	.	.	.	.	.	.
.	.	.	.	.	.	.	.	.	4E-\	.	.	(8d\L	.	.	8r	.	.	4g/	.	.	4E-\	te-	.	(8d\L	.	.	8r	.	.	4g/	te-	.	.	.	.	.	.	.	.	.	.
.	.	.	.	.	.	.	.	.	.	.	.	8c\J)	.	.	8r	.	.	.	.	.	.	.	.	8c\J)	.	.	8r	.	.	.	.	.	.	.	.	.	.	.	.	.	.
.	.	.	.	.	.	.	.	.	8C/	.	.	8A\	.	.	(8e-/	.	.	8cc\	.	.	8C/	-cum	.	8A\	.	.	(8e-/	.	.	8cc\	-cum	.	.	.	.	.	.	.	.	.	.
=24	=24	=24	=24	=24	=24	=24	=24	=24	=24	=24	=24	=24	=24	=24	=24	=24	=24	=24	=24	=24	=24	=24	=24	=24	=24	=24	=24	=24	=24	=24	=24	=24	=24	=24	=24	=24	=24	=24	=24	=24	=24
!	!	!	!	!	!	!	!	!	!	!	!	!	!	!	!	!	!	!LO:TX:a:i:t=rall&colon;	!	!	!	!	!	!	!	!	!	!	!	!LO:TX:a:i:t=rall&colon;	!	!	!	!	!	!	!	!	!	!LO:TX:a:t=ralli                                   a tempo	!
2.r;	2.r;	.	2.r;	.	.	2.r;	.	.	4D\	.	.	4G/	.	.	4d/)	.	.	4b-\	.	.	(4D\	plan-	.	(4G/	.	.	(4d/)	.	.	(4b-\	plan-	.	2.ryy	.	2.ryy	.	2.ryy	.	2.ryy	2.r;	.
.	.	.	.	.	.	.	.	.	.	.	.	.	.	.	.	.	.	(8qb-/	.	.	.	.	.	.	.	.	.	.	.	(8qb-/	.	.	.	.	.	.	.	.	.	.	.
.	.	.	.	.	.	.	.	.	16.D\	.	.	16.F#X/	.	.	16.c/	.	.	16.a/)	.	.	16.D\)	.	.	16.F#X/)	.	.	16.c/)	.	.	16.a/))	-ge-	.	.	.	.	.	.	.	.	.	.
.	.	.	.	.	.	.	.	.	32E-\	.	.	32G/	.	.	32B-/	.	.	32g/	.	.	32E-\	-ge-	.	32G/	.	.	32B-/	.	.	32g/	.	.	.	.	.	.	.	.	.	.	.
.	.	.	.	.	.	.	.	.	8E-;\	.	.	8G;/	.	.	8B-;/	.	.	8g;/	.	.	8E-;\	-re	.	8G;/	.	.	8B-;/	.	.	8g;/	-re	.	.	.	.	.	.	.	.	.	.
!	!	!	!	!	!	!	!	!	!	!	!	!	!	!	!	!	!	!	!	!	!	!	!LO:DY:rj	!	!	!	!	!	!	!LO:TX:a:i:t=a tempo	!	!LO:DY:rj	!	!	!	!	!	!	!	!	!
.	.	.	.	.	.	.	.	.	8r	.	.	8r	.	.	8r	.	.	8r	.	.	8E-\	fac	p	8G/	.	.	8B-/	.	.	8g/	fac	p	.	.	.	.	.	.	.	.	.
!	!	!	!	!	!	!	!	!	!	!	!	!	!	!	!	!	!	!LO:TX:a:i:t=a tempo	!	!	!	!	!	!	!	!	!	!	!	!	!	!	!	!	!	!	!	!	!	!	!
.	.	.	.	.	.	.	.	.	8r	.	.	8r	.	.	8r	.	.	8r	.	.	8C/	me	.	8c\	.	.	8e-/	.	.	8a/	me	.	.	.	.	.	.	.	.	.	.
=25	=25	=25	=25	=25	=25	=25	=25	=25	=25	=25	=25	=25	=25	=25	=25	=25	=25	=25	=25	=25	=25	=25	=25	=25	=25	=25	=25	=25	=25	=25	=25	=25	=25	=25	=25	=25	=25	=25	=25	=25	=25
2.r	2.r	.	2.r	.	.	2.r	.	.	2.r	.	.	2.r	.	.	2.r	.	.	2.r	.	.	4D\	te-	.	4B-\	.	.	4d/	.	.	4d/	te-	.	2.ryy	.	2.ryy	.	2.ryy	.	2.ryy	2.ryy	.
.	.	.	.	.	.	.	.	.	.	.	.	.	.	.	.	.	.	.	.	.	8D\	-cum	.	8B-\	.	.	8d/	.	.	8g/	-cum	.	.	.	.	.	.	.	.	.	.
.	.	.	.	.	.	.	.	.	.	.	.	.	.	.	.	.	.	.	.	.	4D\	plan-	.	(8.d\L	.	.	4d/	.	.	(8.b-/L	plan-	.	.	.	.	.	.	.	.	.	.
.	.	.	.	.	.	.	.	.	.	.	.	.	.	.	.	.	.	.	.	.	.	.	.	16c\Jk)	.	.	.	.	.	16a/Jk)	.	.	.	.	.	.	.	.	.	.	.
.	.	.	.	.	.	.	.	.	.	.	.	.	.	.	.	.	.	.	.	.	8D\	-ge-	.	(16B-\LL	.	.	8d/	.	.	16g/LL	-ge-	.	.	.	.	.	.	.	.	.	.
.	.	.	.	.	.	.	.	.	.	.	.	.	.	.	.	.	.	.	.	.	.	.	.	16A\JJ)	.	.	.	.	.	16f#X/JJ	.	.	.	.	.	.	.	.	.	.	.
=26	=26	=26	=26	=26	=26	=26	=26	=26	=26	=26	=26	=26	=26	=26	=26	=26	=26	=26	=26	=26	=26	=26	=26	=26	=26	=26	=26	=26	=26	=26	=26	=26	=26	=26	=26	=26	=26	=26	=26	=26	=26
4r	4r	.	4r	.	.	4r	.	.	4r	.	.	4r	.	.	4r	.	.	4r	.	.	4G\	-re,	.	4B-\	.	.	4d/	.	.	4g/	-re,	.	2.ryy	.	2.ryy	.	2.ryy	.	2.ryy	2.ryy	.
8r	8r	.	8r	.	.	8r	.	.	8r	.	.	8r	.	.	8r	.	.	8r	.	.	8r	.	.	8r	.	.	8r	.	.	8r	.	.	.	.	.	.	.	.	.	.	.
!	!	!	!	!	!	!	!	!LO:DY:rj	!	!	!LO:DY:rj	!	!	!	!	!	!	!	!	!LO:DY:rj	!	!	!LO:DY:rj	!	!	!	!	!	!	!	!	!LO:DY:rj	!	!	!	!	!	!	!	!	!
8FL 8FF/	8aL 8fn 8c/	.	4c 4F\	.	.	4a 4f/	Fac	f	4F\	Fac	f	4c\	.	.	4fn/	.	.	4a/	Fac	f	4Fn\	Fac	f	4c\	.	.	4fn/	.	.	4a/	Fac	f	.	.	.	.	.	.	.	.	.
8r	8r	.	.	.	.	.	.	.	.	.	.	.	.	.	.	.	.	.	.	.	.	.	.	.	.	.	.	.	.	.	.	.	.	.	.	.	.	.	.	.	.
8E-J 8EE-/	8aJ 8f 8c/	.	8c 8E-\	.	.	8a 8f/	ut	.	8E-\	ut	.	8c\	.	.	8f/	.	.	8a/	ut	.	8E-\	ut	.	8c\	.	.	8f/	.	.	8a/	ut	.	.	.	.	.	.	.	.	.	.
=27	=27	=27	=27	=27	=27	=27	=27	=27	=27	=27	=27	=27	=27	=27	=27	=27	=27	=27	=27	=27	=27	=27	=27	=27	=27	=27	=27	=27	=27	=27	=27	=27	=27	=27	=27	=27	=27	=27	=27	=27	=27
8D 8DD/	8b- 8f 8B-/	.	8B- 8D\	.	.	8b- 8f/	por-	.	8D\	por-	.	8B-\	.	.	8f/	.	.	8b-/	por-	.	8D\	por-	.	8B-\	.	.	8f/	.	.	8b-/	por-	.	2.ryy	.	2.ryy	.	2.ryy	.	2.ryy	2.ryy	.
4D 4DD/	4f 4B-/	.	4B- 4D\	.	.	4f/	-tem	.	4D\	-tem	.	4B-\	.	.	4f/	.	.	4f/	-tem	.	4D\	-tem	.	4B-\	.	.	4f/	.	.	4f/	-tem	.	.	.	.	.	.	.	.	.	.
8D-XL 8DDn/	8gL 8e- 8B-/	.	4B- 4D-X\	.	.	4g 4e-/	Chris-	.	4D-X\	Chris-	.	4B-\	.	.	4e-/	.	.	4g/	Chris-	.	4D-X\	Chris-	.	4B-\	.	.	4e-/	.	.	4g/	Chris-	.	.	.	.	.	.	.	.	.	.
8r	8r	.	.	.	.	.	.	.	.	.	.	.	.	.	.	.	.	.	.	.	.	.	.	.	.	.	.	.	.	.	.	.	.	.	.	.	.	.	.	.	.
8D-J 8DD/	8gJ 8e- 8B-/	.	8B- 8D-\	.	.	8g 8e-/	-ti	.	8D-\	-ti	.	8B-\	.	.	8e-/	.	.	8g/	-ti	.	8D-\	-ti	.	8B-\	.	.	8e-/	.	.	8g/	-ti	.	.	.	.	.	.	.	.	.	.
!!LO:PB:g=original
=28	=28	=28	=28	=28	=28	=28	=28	=28	=28	=28	=28	=28	=28	=28	=28	=28	=28	=28	=28	=28	=28	=28	=28	=28	=28	=28	=28	=28	=28	=28	=28	=28	=28	=28	=28	=28	=28	=28	=28	=28	=28
8A-X 8C\	8a-X 8e- 8A-X/	.	8A-X 8C\	.	.	8a-X 8e-/	.	.	8C/	.	.	8A-X\	.	.	8e-/	.	.	8a-X/	mor-	.	8C/	mor-	.	8A-X\	.	.	8e-/	.	.	8a-X/	mor-	.	2.ryy	.	2.ryy	.	2.ryy	.	2.ryy	2.ryy	.
4A- 4C\	4e- 4A-/	.	[4A- [>4C\	.	.	[4e-/	.	.	[4C/	.	.	[4A-\	.	.	[4e-/	.	.	[4e-/	-tem	.	[4C/	-tem	.	[4A-\	.	.	[4e-/	.	.	[>4e-/	-tem	.	.	.	.	.	.	.	.	.	.
4r	4r	.	8A-] 8C\]	.	.	8e-/]	.	.	8C/]	.	.	8A-\]	.	.	8e-/]	.	.	8e-/]	.	.	8C/]	.	.	8A-\]	.	.	8e-/]	.	.	8e-/]	.	<	.	.	.	.	.	.	.	.	.
.	.	.	8r	.	.	8r	.	.	8C-X/	.	.	8A-\	.	.	8e-/	.	.	8e-/	Pas-	.	8C-X/	Pas-	.	8A-\	.	.	8e-/	.	.	8e-/	Pas-	.	.	.	.	.	.	.	.	.	.
8r	8r	.	8r	.	.	8r	.	.	8C-/	.	.	8A-\	.	.	8e-/	.	.	8f/	-si-	.	8C-/	-si-	.	8A-\	.	.	8e-/	.	.	8f/	-si-	[[	.	.	.	.	.	.	.	.	.
=29	=29	=29	=29	=29	=29	=29	=29	=29	=29	=29	=29	=29	=29	=29	=29	=29	=29	=29	=29	=29	=29	=29	=29	=29	=29	=29	=29	=29	=29	=29	=29	=29	=29	=29	=29	=29	=29	=29	=29	=29	=29
4r	4r	.	4r	.	.	4r	.	.	4BB-/	.	.	4B-\	.	.	4e-/	.	.	4g/	-o-	.	4BB-/	-o-	.	4B-\	.	.	4e-/	.	.	4g/	-o-	.	2.ryy	.	2.ryy	.	2.ryy	.	2.ryy	2.ryy	.
8r	8r	.	8r	.	.	8r	.	.	8BB-/	.	.	8e-\	.	.	8e-/	.	.	8g/	-nis	.	8BB-/	-nis	.	8e-\	.	.	8e-/	.	.	8g/	-nis	.	.	.	.	.	.	.	.	.	.
4r	4r	.	4r	.	.	4r	.	.	(8Cn\L	.	.	4e-\	.	.	4e-/	.	.	4a-X/	fac	.	(8Cn\L	fac	.	4e-\	.	.	4e-/	.	.	4a-X/	fac	.	.	.	.	.	.	.	.	.	.
.	.	.	.	.	.	.	.	.	8c\J)	.	.	.	.	.	.	.	.	.	.	.	8c\J)	.	.	.	.	.	.	.	.	.	.	.	.	.	.	.	.	.	.	.	.
8E- 8BB-/	8g 8e- 8B-/	.	8e- 8B-\	.	.	8g 8e-/	.	.	8B-X\	.	.	8e-\	.	.	8e-/	.	.	8g/	con-	.	8B-X\	con-	.	8e-\	.	.	8e-/	.	.	8g/	con	.	.	.	.	.	.	.	.	.	.
=30	=30	=30	=30	=30	=30	=30	=30	=30	=30	=30	=30	=30	=30	=30	=30	=30	=30	=30	=30	=30	=30	=30	=30	=30	=30	=30	=30	=30	=30	=30	=30	=30	=30	=30	=30	=30	=30	=30	=30	=30	=30
*	*	*	*	*	*	*^	*	*	*	*	*	*	*	*	*	*	*	*	*	*	*	*	*	*	*	*	*	*	*	*	*	*	*	*	*	*	*	*	*	*	*
!	!	!	!	!	!	!	!	!	!LO:DY:rj	!	!	!LO:DY:rj	!	!	!	!	!	!LO:DY:rj	!	!	!LO:DY:rj	!	!	!LO:DY:rj	!	!	!	!	!	!	!	!	!LO:DY:rj	!	!	!	!	!	!	!	!	!
8E-L 8AA-X/	8ccL 8a-X 8e- 8c/	.	8e- 8A-X\	.	.	8cc\	8e-\	.	f	8A-X\	.	f	8e-\	.	.	8e-/	.	f	8cc\	-sor-	f	8A-X\	-sor-	f	8e-\	.	.	8e-/	.	.	8cc\	sor-	f	2.ryy	.	2.ryy	.	2.ryy	.	2.ryy	2.ryy	.
8E-J 8GG/	8b-J 8e- 8B-/	.	8e- 8G\	.	.	8b-\	8e-\	.	.	8G\	.	.	8e-\	.	.	8e-/	.	.	8b-\	-tem	.	8G\	-tem	.	8e-\	.	.	8e-/	.	.	8b-\	-tem	.	.	.	.	.	.	.	.	.	.
!	!	!LO:DY:b=2	!	!	!	!	!	!	!	!	!	!	!	!	!	!	!	!	!	!	!	!	!	!	!	!	!	!	!	!	!	!	!	!	!	!	!	!	!	!	!	!
8r;	8r;	p	8r;	.	.	8r;	2ryy	.	.	8r;	.	.	8r;	.	.	8r;	.	.	8r;	.	.	8r;	.	.	8r;	.	.	8r;	.	.	8r;	.	.	.	.	.	.	.	.	.	.	.
!	!	!	!	!	!	!	!	!	!	!	!	!	!	!	!	!	!	!	!	!	!	!	!	!	!	!	!	!	!	!	!	!	!LO:DY:rj	!	!	!	!	!	!	!	!	!
8F 8FF/	16r	.	4r	.	.	4r	.	.	.	4r	.	.	4r	.	.	4r	.	.	4r	.	.	4F\	fac	.	4e-\	.	.	4f/	.	.	4an/	Fac	p	.	.	.	.	.	.	.	.	.
.	16c/LL	.	.	.	.	.	.	.	.	.	.	.	.	.	.	.	.	.	.	.	.	.	.	.	.	.	.	.	.	.	.	.	.	.	.	.	.	.	.	.	.	.
8r	16e-/	.	.	.	.	.	.	.	.	.	.	.	.	.	.	.	.	.	.	.	.	.	.	.	.	.	.	.	.	.	.	.	.	.	.	.	.	.	.	.	.	.
.	16f/J	.	.	.	.	.	.	.	.	.	.	.	.	.	.	.	.	.	.	.	.	.	.	.	.	.	.	.	.	.	.	.	.	.	.	.	.	.	.	.	.	.
8r	8an/J	.	8r	.	.	8r	.	.	.	8r	.	.	8r	.	.	8r	.	.	8r	.	.	8r	.	.	8r	.	.	8r	.	.	8r	.	.	.	.	.	.	.	.	.	.	.
*	*	*	*	*	*	*v	*v	*	*	*	*	*	*	*	*	*	*	*	*	*	*	*	*	*	*	*	*	*	*	*	*	*	*	*	*	*	*	*	*	*	*	*
=31	=31	=31	=31	=31	=31	=31	=31	=31	=31	=31	=31	=31	=31	=31	=31	=31	=31	=31	=31	=31	=31	=31	=31	=31	=31	=31	=31	=31	=31	=31	=31	=31	=31	=31	=31	=31	=31	=31	=31	=31	=31
8BB- 8BBB-/	16r	.	2.r	.	.	2.r	.	.	2.r	.	.	2.r	.	.	2.r	.	.	2.r	.	.	4BB-/	.	.	4d\	.	.	4f/	.	.	4a-X/	fac	.	2.ryy	.	2.ryy	.	2.ryy	.	2.ryy	2.ryy	.
.	16B-/LL	.	.	.	.	.	.	.	.	.	.	.	.	.	.	.	.	.	.	.	.	.	.	.	.	.	.	.	.	.	.	.	.	.	.	.	.	.	.	.	.
8r	16d/	.	.	.	.	.	.	.	.	.	.	.	.	.	.	.	.	.	.	.	.	.	.	.	.	.	.	.	.	.	.	.	.	.	.	.	.	.	.	.	.
.	16f/J	.	.	.	.	.	.	.	.	.	.	.	.	.	.	.	.	.	.	.	.	.	.	.	.	.	.	.	.	.	.	.	.	.	.	.	.	.	.	.	.
8r	8a-X/J	.	.	.	.	.	.	.	.	.	.	.	.	.	.	.	.	.	.	.	8r	.	.	8r	.	.	8r	.	.	8r	.	.	.	.	.	.	.	.	.	.	.
8C-X 8CC-X/	16r	.	.	.	.	.	.	.	.	.	.	.	.	.	.	.	.	.	.	.	(4.C-X/	fac	.	(4.c-X\	.	.	[4.e-/	.	.	[4.g-X/	fac	.	.	.	.	.	.	.	.	.	.
.	16c-X/LL	.	.	.	.	.	.	.	.	.	.	.	.	.	.	.	.	.	.	.	.	.	.	.	.	.	.	.	.	.	.	.	.	.	.	.	.	.	.	.	.
8r	16e-/	.	.	.	.	.	.	.	.	.	.	.	.	.	.	.	.	.	.	.	.	.	.	.	.	.	.	.	.	.	.	.	.	.	.	.	.	.	.	.	.
.	16g-X/J	.	.	.	.	.	.	.	.	.	.	.	.	.	.	.	.	.	.	.	.	.	.	.	.	.	.	.	.	.	.	.	.	.	.	.	.	.	.	.	.
8r	8cc-X/J	.	.	.	.	.	.	.	.	.	.	.	.	.	.	.	.	.	.	.	.	.	.	.	.	.	.	.	.	.	.	<	.	.	.	.	.	.	.	.	.
=32	=32	=32	=32	=32	=32	=32	=32	=32	=32	=32	=32	=32	=32	=32	=32	=32	=32	=32	=32	=32	=32	=32	=32	=32	=32	=32	=32	=32	=32	=32	=32	=32	=32	=32	=32	=32	=32	=32	=32	=32	=32
8BB- 8BBB-/	16r	.	2.r	.	.	2.r	.	.	4r	.	.	4r	.	.	4r	.	.	4r	.	.	4.BB-/)	.	.	4.e-\)	.	.	4.e-/]	.	.	4.g-/]	.	.	2.ryy	.	2.ryy	.	2.ryy	.	2.ryy	2.ryy	.
.	16B-/LL	.	.	.	.	.	.	.	.	.	.	.	.	.	.	.	.	.	.	.	.	.	.	.	.	.	.	.	.	.	.	.	.	.	.	.	.	.	.	.	.
8r	16e-/	.	.	.	.	.	.	.	.	.	.	.	.	.	.	.	.	.	.	.	.	.	.	.	.	.	.	.	.	.	.	.	.	.	.	.	.	.	.	.	.
.	16g-X/J	.	.	.	.	.	.	.	.	.	.	.	.	.	.	.	.	.	.	.	.	.	.	.	.	.	.	.	.	.	.	.	.	.	.	.	.	.	.	.	.
8r	8b-/J	.	.	.	.	.	.	.	8r	.	.	8r	.	.	8r	.	.	8r	.	.	.	.	.	.	.	.	.	.	.	.	.	.	.	.	.	.	.	.	.	.	.
8AA-X\L	8r	.	.	.	.	.	.	.	8r	.	.	8r	.	.	8r	.	.	8r	.	<	4.AA-X/	con-	.	4.c-X\	.	.	4.e-/	.	.	4.f/	con-	[[	.	.	.	.	.	.	.	.	.
!	!	!LO:HP:a	!	!	!	!	!	!	!	!	!	!	!	!	!	!	!	!	!	!	!	!	!	!	!	!	!	!	!	!	!	!	!	!	!	!	!	!	!	!	!
8F 8E- 8C-X\	8fL 8e- 8c-X/	<	.	.	.	.	.	.	8AA-X/	fac	<	8c-X\	.	.	8e-/	fac	.	8f/	fac	.	.	.	.	.	.	.	.	.	.	.	.	.	.	.	.	.	.	.	.	.	.
8FJ 8E- 8C-\	8fJ 8e- 8c-/	[[	.	.	.	.	.	.	8AA-/	con-	[[	8c-\	.	.	8e-/	con	.	8f/	con-	[[	.	.	.	.	.	.	.	.	.	.	.	.	.	.	.	.	.	.	.	.	.
=33	=33	=33	=33	=33	=33	=33	=33	=33	=33	=33	=33	=33	=33	=33	=33	=33	=33	=33	=33	=33	=33	=33	=33	=33	=33	=33	=33	=33	=33	=33	=33	=33	=33	=33	=33	=33	=33	=33	=33	=33	=33
!	!	!LO:DY:a:rj	!	!	!	!	!	!	!	!	!LO:DY:rj	!	!	!	!	!	!	!	!	!LO:DY:rj	!	!	!LO:DY:rj	!	!	!LO:DY:rj	!	!	!	!	!	!LO:DY:rj	!	!	!	!	!	!	!	!	!
8.GnL 8.E- 8.BB-\	8.gnL 8.e- 8.B-/	f	2.r	.	.	2.r	.	.	2.BB-/	-sor-	f	(4.B-\	.	.	[4.e-/	.	.	(>4.gn/	-sor-	f	2.BB-/	-sor-	f	(4.B-\	.	f	(4.e-/	.	.	(>4.gn/	-sor-	f	2.ryy	.	2.ryy	.	2.ryy	.	2.ryy	2.ryy	.
16B-L 16G 16E-\	16b-L 16g 16e-/	.	.	.	.	.	.	.	.	.	.	.	.	.	.	.	.	.	.	.	.	.	.	.	.	.	.	.	.	.	.	.	.	.	.	.	.	.	.	.	.
16e- 16B- 16G\	16ee- 16b- 16g/	.	.	.	.	.	.	.	.	.	.	.	.	.	.	.	.	.	.	.	.	.	.	.	.	.	.	.	.	.	.	.	.	.	.	.	.	.	.	.	.
16gJJ 16e- 16B-\	16ggJJ 16ee- 16b-/	.	.	.	.	.	.	.	.	.	.	.	.	.	.	.	.	.	.	.	.	.	.	.	.	.	.	.	.	.	.	.	.	.	.	.	.	.	.	.	.
4B- 4BB-\	4ff 4ee- 4b-\	.	.	.	.	.	.	.	.	.	.	4B-\	.	.	4e-/]	.	.	4f/	.	.	.	.	.	4B-\	.	.	4e-/	.	.	4f/	.	.	.	.	.	.	.	.	.	.	.
8B- 8BB-\	8bb- 8dd 8b-\	.	.	.	.	.	.	.	.	.	.	8A-X\)	.	.	8d/	.	.	8b-/)	.	.	.	.	.	8A-X\)	.	.	8d/)	.	.	8b-/)	.	.	.	.	.	.	.	.	.	.	.
!!LO:PB:g=original
=34	=34	=34	=34	=34	=34	=34	=34	=34	=34	=34	=34	=34	=34	=34	=34	=34	=34	=34	=34	=34	=34	=34	=34	=34	=34	=34	=34	=34	=34	=34	=34	=34	=34	=34	=34	=34	=34	=34	=34	=34	=34
8c 8C\	8gg 8ee- 8g\	.	4r	.	.	4r	.	.	4C/	-tem	.	4G/	.	.	4e-/	.	.	4g/	-tem	.	4C/	-tem	.	4G/	.	.	4e-/	.	.	4g/	-tem	.	2.ryy	.	2.ryy	.	2.ryy	.	2.ryy	2.ryy	.
8r	8r	.	.	.	.	.	.	.	.	.	.	.	.	.	.	.	.	.	.	.	.	.	.	.	.	.	.	.	.	.	.	.	.	.	.	.	.	.	.	.	.
8r	8r	.	8r	.	.	8r	.	.	8r	.	.	8r	.	.	8r	.	.	8r	.	.	8r	.	<	8r	.	.	8r	.	.	8r	.	<	.	.	.	.	.	.	.	.	.
8AA-X\L	8r	.	8r	.	.	8r	.	.	4AA-X/	fac	<	4c-X\	.	.	4e-/	.	.	4f/	fac	<	4AA-X/	fac	.	4c-X\	.	.	4e-/	.	.	4f/	fac	.	.	.	.	.	.	.	.	.	.
!	!	!	!	!	!	!	!	!LO:HP:b	!	!	!	!	!	!	!	!	!	!	!	!	!	!	!	!	!	!	!	!	!	!	!	!	!	!	!	!	!	!	!	!	!
8F 8E- 8C-X\	8fL 8e- 8c-X/	.	8c-X 8A-X\	fac	.	8f 8e-/	.	<	.	.	.	.	.	.	.	.	.	.	.	.	.	.	.	.	.	.	.	.	.	.	.	.	.	.	.	.	.	.	.	.	.
8FJ 8E- 8C-\	8fJ 8e- 8c-/	.	8e- 8A-\	con-	.	8cc-X 8f/	.	[[	8AA-/	con-	[[	8e-\	.	.	8f/	.	.	8cc-X\	con-	[[	8AA-/	con-	[	8e-\	.	.	8f/	.	.	8cc-X\	con-	[[	.	.	.	.	.	.	.	.	.
=35	=35	=35	=35	=35	=35	=35	=35	=35	=35	=35	=35	=35	=35	=35	=35	=35	=35	=35	=35	=35	=35	=35	=35	=35	=35	=35	=35	=35	=35	=35	=35	=35	=35	=35	=35	=35	=35	=35	=35	=35	=35
!	!	!LO:DY:rj	!	!	!	!	!	!LO:DY:rj	!	!	!LO:DY:rj	!	!	!	!	!	!	!	!	!LO:DY:rj	!	!	!LO:DY:rj	!	!	!	!	!	!	!	!	!LO:DY:rj	!	!	!	!	!	!	!	!	!
4G 4E- 4BB-\	4g 4e- 4B-/	f	(>4.e- 4.B-\	-sor-	.	(>4.b- 4.g/	.	f	(>8.BB-\L	-sor-	f	(4.e-\	.	.	(8g/L	.	.	(8b-\L	-sor-	f	(>8.BB-\L	-sor-	f	(4.e-\	.	.	(8g/L	.	.	(8b-\L	-sor-	f	2.ryy	.	2.ryy	.	2.ryy	.	2.ryy	2.ryy	.
.	.	.	.	.	.	.	.	.	.	.	.	.	.	.	16e-/L	.	.	16g\L	.	.	.	.	.	.	.	.	16e-/L	.	.	16g\L	.	.	.	.	.	.	.	.	.	.	.
.	.	.	.	.	.	.	.	.	16B-\L	.	.	.	.	.	16g/J	.	.	16b-\	.	.	16B-\L	.	.	.	.	.	16g/J	.	.	16b-\	.	.	.	.	.	.	.	.	.	.	.
8r	8r	.	.	.	.	.	.	.	16G\	.	.	.	.	.	8b-/J	.	.	16ee-\	.	.	16G\	.	.	.	.	.	8b-/J	.	.	16ee-\	.	.	.	.	.	.	.	.	.	.	.
.	.	.	.	.	.	.	.	.	16E-\JJ	.	.	.	.	.	.	.	.	16gg\JJ	.	.	16E-\JJ	.	.	.	.	.	.	.	.	16gg\JJ	.	.	.	.	.	.	.	.	.	.	.
4B- 4F 4D 4BB-\	4dd 4b- 4a 4f/	.	4d 4BB-\	.	.	4b- 4f/	.	.	4.BB-/)	.	.	4d\	.	.	4b-/	.	.	4bb-\	.	.	4.BB-/)	.	.	4d\	.	.	4b-/	.	.	4bb-\	.	.	.	.	.	.	.	.	.	.	.
8r	8r	.	8f/)	.	.	8dd 8a/)	.	.	.	.	.	8f\)	.	.	8a-X/)	.	.	8dd\)	.	.	.	.	.	8f\)	.	.	8a-X/)	.	.	8dd\)	.	.	.	.	.	.	.	.	.	.	.
=36	=36	=36	=36	=36	=36	=36	=36	=36	=36	=36	=36	=36	=36	=36	=36	=36	=36	=36	=36	=36	=36	=36	=36	=36	=36	=36	=36	=36	=36	=36	=36	=36	=36	=36	=36	=36	=36	=36	=36	=36	=36
*	*	*	*^	*	*	*	*	*	*	*	*	*	*	*	*	*	*	*	*	*	*	*	*	*	*	*	*	*	*	*	*	*	*	*	*	*	*	*	*	*	*
4B- 4G 4E-\	4ee- 4b- 4g 4e-/	.	4e-/	4E-\	-tem.	.	4ee- 4g/	.	.	4E-\	-tem	.	4e-\	.	.	4g/	.	.	4ee-\	-tem	.	4E-\	-tem	.	4e-\	.	.	4g/	.	.	4ee-\	-tem	.	2.ryy	.	2.ryy	.	2.ryy	.	2.ryy	2.ryy	.
8r	8r	.	8r	2ryy	.	.	8r	.	.	8r	.	.	8r	.	.	8r	.	.	8r	.	.	8r	.	.	8r	.	.	8r	.	.	8r	.	.	.	.	.	.	.	.	.	.	.
4r	4r	.	4r	.	.	.	4r	.	.	4.G\	et	.	(8B-\L	et	.	4r	.	.	4r	.	.	4.G\	et	.	(8B-\L	et	.	4r	.	.	4r	.	.	.	.	.	.	.	.	.	.	.
.	.	.	.	.	.	.	.	.	.	.	.	.	8e-\	.	.	.	.	.	.	.	.	.	.	.	8e-\	.	.	.	.	.	.	.	.	.	.	.	.	.	.	.	.	.
8r	8r	.	8r	.	.	.	8r	.	.	.	.	.	8d\J)	.	.	8r	.	.	8r	.	.	.	.	.	8d\J)	.	.	8r	.	.	8r	.	.	.	.	.	.	.	.	.	.	.
=37	=37	=37	=37	=37	=37	=37	=37	=37	=37	=37	=37	=37	=37	=37	=37	=37	=37	=37	=37	=37	=37	=37	=37	=37	=37	=37	=37	=37	=37	=37	=37	=37	=37	=37	=37	=37	=37	=37	=37	=37	=37	=37
2.r	2.r	.	2.r	2.r	.	.	2.r	.	.	4A-X\	pla-	.	4c\	pla-	.	2.r	.	.	2.r	.	.	4A-X\	pla-	.	4c\	pla-	.	2.r	.	.	2.r	.	.	2.ryy	.	2.ryy	.	2.ryy	.	2.ryy	2.ryy	.
.	.	.	.	.	.	.	.	.	.	8A-\	-gis	.	8c\	-gis	.	.	.	.	.	.	.	8A-\	-gis	.	8c\	-gis	.	.	.	.	.	.	.	.	.	.	.	.	.	.	.	.
.	.	.	.	.	.	.	.	.	.	4An\	re-	.	8c\L	re-	.	.	.	.	.	.	.	4An\	re-	.	8c\L	re-	.	.	.	.	.	.	.	.	.	.	.	.	.	.	.	.
.	.	.	.	.	.	.	.	.	.	.	.	.	8f\J	.	.	.	.	.	.	.	.	.	.	.	8f\J	.	.	.	.	.	.	.	.	.	.	.	.	.	.	.	.	.
.	.	.	.	.	.	.	.	.	.	8A\	-co-	.	8e-\	-co-	.	.	.	.	.	.	.	8A\	-co-	.	8e-\	-co-	.	.	.	.	.	.	.	.	.	.	.	.	.	.	.	.
*	*	*	*v	*v	*	*	*	*	*	*	*	*	*	*	*	*	*	*	*	*	*	*	*	*	*	*	*	*	*	*	*	*	*	*	*	*	*	*	*	*	*	*
=38	=38	=38	=38	=38	=38	=38	=38	=38	=38	=38	=38	=38	=38	=38	=38	=38	=38	=38	=38	=38	=38	=38	=38	=38	=38	=38	=38	=38	=38	=38	=38	=38	=38	=38	=38	=38	=38	=38	=38	=38	=38
2.r	2.r	.	2.r	.	.	2.r	.	.	4B-\	-le-	.	4d\	-le-	.	4r	.	.	2.r	.	.	4B-\	-le-	.	4d\	-le-	.	4r	.	.	2.r	.	.	2.ryy	.	2.ryy	.	2.ryy	.	2.ryy	2.ryy	.
.	.	.	.	.	.	.	.	.	8B-\	-re	.	8d\	-re	.	8r	.	.	.	.	.	8B-\	-re	.	8d\	-re	.	8r	.	.	.	.	.	.	.	.	.	.	.	.	.	.
.	.	.	.	.	.	.	.	.	4.Bn\	et	.	4.d\	et	.	(8d/L	et	.	.	.	.	4.Bn\	et	.	4.d\	et	.	(8d/L	et	.	.	.	.	.	.	.	.	.	.	.	.	.
.	.	.	.	.	.	.	.	.	.	.	.	.	.	.	8g/	.	.	.	.	.	.	.	.	.	.	.	8g/	.	.	.	.	.	.	.	.	.	.	.	.	.	.
.	.	.	.	.	.	.	.	.	.	.	.	.	.	.	8f/J)	.	.	.	.	.	.	.	.	.	.	.	8f/J)	.	.	.	.	.	.	.	.	.	.	.	.	.	.
=39	=39	=39	=39	=39	=39	=39	=39	=39	=39	=39	=39	=39	=39	=39	=39	=39	=39	=39	=39	=39	=39	=39	=39	=39	=39	=39	=39	=39	=39	=39	=39	=39	=39	=39	=39	=39	=39	=39	=39	=39	=39
2.r	2.r	.	2.r	.	.	2.r	.	.	4c\	pla-	.	4c\	pla-	.	4e-/	pla-	.	4r	.	.	4c\	pla-	.	4c\	pla-	.	4e-/	pla-	.	4r	.	.	2.ryy	.	2.ryy	.	2.ryy	.	2.ryy	2.ryy	.
.	.	.	.	.	.	.	.	.	8C/	-gis	.	8c\	-gis	.	8e-/	-gis	.	8r	.	.	8C/	-gis	.	8c\	-gis	.	8e-/	-gis	.	8r	.	.	.	.	.	.	.	.	.	.	.
.	.	.	.	.	.	.	.	.	4D\	re-	.	4B-\	re-	.	4f/	re-	.	8f/L	re-	.	4D\	re-	.	4B-\	re-	.	4f/	re-	.	(8f/L	re-	.	.	.	.	.	.	.	.	.	.
.	.	.	.	.	.	.	.	.	.	.	.	.	.	.	.	.	.	8b-/J	.	.	.	.	.	.	.	.	.	.	.	8b-/J)	.	.	.	.	.	.	.	.	.	.	.
.	.	.	.	.	.	.	.	.	8D\	-co	.	8B-\	-co	.	8f/	-co	.	8a-X/	-co-	.	8D\	-co-	.	8B-\	-co	.	8f/	-co	.	8a-X/	-co-	.	.	.	.	.	.	.	.	.	.
!!LO:PB:g=original
=40	=40	=40	=40	=40	=40	=40	=40	=40	=40	=40	=40	=40	=40	=40	=40	=40	=40	=40	=40	=40	=40	=40	=40	=40	=40	=40	=40	=40	=40	=40	=40	=40	=40	=40	=40	=40	=40	=40	=40	=40	=40
*	*	*	*	*	*	*	*	*	*	*	*	*	*	*	*	*	*	*	*	*	*	*	*	*	*	*	*	*	*	*	*	*	*	*	*	*	*^	*	*	*	*
4r	4r	.	2.r	.	.	2.r	.	.	(4E-\	-le-	.	(4B-\	.	.	4.e-/	.	.	(>4g/	-le-	.	(4E-\	-le-	.	(4B-\	.	.	4.e-/	.	.	(>4g/	-le-	.	4r	.	4r	.	4r	2ryy	.	4r	4r	.
8r	8r	.	.	.	.	.	.	.	8C/)	.	.	8e-\)	.	.	.	.	.	8an/)	.	.	8C/)	.	.	8e-\)	.	.	.	.	.	8an/)	.	.	8r	.	8r	.	8r	.	.	8r	8r	.
!	!	!	!	!	!	!	!	!	!	!	!	!	!	!	!	!	!	!	!	!	!	!	!	!	!	!	!	!	!	!	!	!	!	!	!	!	!	!	!	!	!	!LO:HP:a
4r	4r	.	.	.	.	.	.	.	(8D\L	-re,	.	4d\	.	.	4d/	.	.	4f#X/	-re,	.	(8D\L	-re,	.	4d\	.	.	4d/	.	.	4f#X/	-re,	.	4r	.	4r	.	4r	.	.	4r	4r	<
.	.	.	.	.	.	.	.	.	8d\J)	.	.	.	.	.	.	.	.	.	.	.	8d\J)	.	.	.	.	.	.	.	.	.	.	.	.	.	.	.	.	8ryy	.	.	.	.
8c 8C\	8dd 8f#X 8d/	.	.	.	.	.	.	.	(8c\	Fac	.	[8d\	.	.	(8f#X/	.	.	[8dd\	Fac	.	(8c\	Fac	.	[8d\	.	.	(8f#X/	.	.	[8dd\	Fac	.	[8B- [>8BB-\	<	8d 8D/	<	[8dd/	(>8f#\	.	(8ff#X\	[8ddd\	[[
=41	=41	=41	=41	=41	=41	=41	=41	=41	=41	=41	=41	=41	=41	=41	=41	=41	=41	=41	=41	=41	=41	=41	=41	=41	=41	=41	=41	=41	=41	=41	=41	=41	=41	=41	=41	=41	=41	=41	=41	=41	=41	=41
!	!	!	!	!	!	!	!	!	!	!	!	!	!	!	!	!	!	!	!	!	!	!	!	!	!	!	!	!	!	!	!	!	!	!	!	!LO:DY:a:rj	!	!	!	!	!	!LO:DY:a:rj
8B-L 8BB-\	8ddL 8g 8d/	.	8r	.	f	8r	.	f	4B-\)	.	.	4d\]	.	.	4g/)	.	.	4dd\]	.	.	4B-\)	.	.	4d\]	.	.	4g/)	.	.	4dd\]	.	.	4B-] 4BB-\]	[	4d 4D/	[ f	4dd/]	4g\)	.	4gg\)	4ddd\]	f
8r	8r	.	8d 8B-\	Fac	.	8dd 8g/	.	.	.	.	.	.	.	.	.	.	.	.	.	.	.	.	.	.	.	.	.	.	.	.	.	.	.	.	.	.	.	.	.	.	.	.
8AJ 8AA\	8ccJ 8f 8d/	.	8d 8A\	me	.	8cc 8f#X/	.	.	8A\	me	.	8d\	.	.	8f#X/	.	.	8cc\	me	.	8A\	me	.	8d\	.	.	8f#X/	.	.	8cc\	me	.	8A 8AA\	.	8d 8D/	.	8cc/	8f#\	.	8ff#X\	8ccc\	.
8GL 8GG\	8r	.	8r	.	.	8r	.	.	4G\	pla-	.	4d\	.	.	4g/	.	.	(8cc\L	pla-	.	4G\	pla-	.	4d\	.	.	4g/	.	.	(8cc\L	pla-	.	4G 4GG/	.	4d 4D/	.	(8cc/L	4g\	.	4gg\	(8ccc\L	.
8r	8b-L 8g 8d/	.	8d 8G\	pla-	.	8b- 8g/	.	.	.	.	.	.	.	.	.	.	.	8b-\J)	.	.	.	.	.	.	.	.	.	.	.	8b-\J)	.	.	.	.	.	.	8b-/)	.	.	.	8bb-\)	.
8DJ 8DD\	8aJ 8f 8d/	.	8d 8D\	-gis	.	8a 8f#/	.	.	8D\	-gis	.	8d\	.	.	8f#/	.	.	8a/	-gis	.	8D\	-gis	.	8d\	.	.	8f#/	.	.	8a/	-gis	.	8D 8DD/	.	8d 8D/	.	8a'/J	8f#\	.	8ff#\	8aa'\J	.
=42	=42	=42	=42	=42	=42	=42	=42	=42	=42	=42	=42	=42	=42	=42	=42	=42	=42	=42	=42	=42	=42	=42	=42	=42	=42	=42	=42	=42	=42	=42	=42	=42	=42	=42	=42	=42	=42	=42	=42	=42	=42	=42
*	*	*	*	*	*	*^	*	*	*	*	*	*	*	*	*	*	*	*	*	*	*	*	*	*	*	*	*	*	*	*	*	*	*	*	*^	*	*	*	*	*	*	*
!	!	!	!	!	!	!	!	!	!	!	!	!	!	!	!	!	!	!	!	!	!	!	!	!	!	!	!	!	!	!	!	!	!	!	!	!	!	!	!	!	!	!	!	!LO:HP:a
8E-L 8EE-/	8r	.	8r	.	.	8r	8ryy	.	.	4E-\	val-	.	4B-\	.	.	4g/	.	.	4g/	val-	.	4E-\	val-	.	4B-\	.	.	4g/	.	.	4g/	val-	.	4E- 4EE-/	.	4d 4D/	4.ryy	.	4b-/	4g\	.	4gg\	4gg\	>
8r	8gL 8e- 8B-/	.	8B- 8E-\	val-	.	8g/	8g\	.	.	.	.	.	.	.	.	.	.	.	.	.	.	.	.	.	.	.	.	.	.	.	.	.	.	.	.	.	.	.	.	.	.	.	.	.
8CJ 8CC/	8aJ 8e- 8c/	.	8c 8C\	-ne-	.	8a 8e-/	2ryy	.	.	8C/	-ne-	.	8c\	.	.	8e-/	.	.	8a/	-ne-	.	8C/	-ne-	.	8c\	.	.	8e-/	.	.	8a/	-ne-	.	8C 8CC/	.	8e-X 8cX\	.	.	8a/	8a\	.	8ee-\	8aa\	.
4D 4DD/	4f#X 4d 4A/	.	4A 4D\	-ra-	.	4f#X 4d/	.	.	.	4D\	-ra-	.	4A\	.	.	4d/	.	.	4f#X/	-ra-	.	4D/	-ra-	.	4A\	.	.	4d/	.	.	4f#X/	-ra-	.	4D 4DD/	.	4d/	4d\	.	4a/	4f#\	.	4dd\	4ff#X\	.
8r	8r	.	8A 8C\	-ri	.	8f# 8d/	.	.	.	8C\	-ri	.	8A\	.	.	8d/	.	.	8f#/	-ri	.	8C/	-ri	.	8A\	.	.	8d/	.	.	8f#/	-ri	.	8D 8DD/	.	8d/	8d\	.	8a/	8f#\	.	8dd\	8ff#\	]
*	*	*	*	*	*	*v	*v	*	*	*	*	*	*	*	*	*	*	*	*	*	*	*	*	*	*	*	*	*	*	*	*	*	*	*	*	*	*	*	*	*	*	*	*	*
=43	=43	=43	=43	=43	=43	=43	=43	=43	=43	=43	=43	=43	=43	=43	=43	=43	=43	=43	=43	=43	=43	=43	=43	=43	=43	=43	=43	=43	=43	=43	=43	=43	=43	=43	=43	=43	=43	=43	=43	=43	=43	=43	=43
!	!	!	!	!	!	!	!	!	!	!	!LO:DY:rj	!	!	!	!	!	!	!	!	!LO:DY:rj	!	!	!LO:DY:rj	!	!	!	!	!	!LO:DY:rj	!	!	!LO:DY:rj	!	!	!	!	!	!	!	!	!	!	!
2.r	2.r	.	2.r	.	.	2.r	.	.	8BB-/	Cru-	p	8G/	.	.	8d/	.	.	8g/	Cru-	p	8BB-/	Cru-	p	8G/	.	.	8d/	.	p	8g/	Cru-	p	8G 8GG\	.	8d/	8d\	.	8b-/	8g\	.	8dd\	8gg\	.
.	.	.	.	.	.	.	.	.	8BB-/	-ce	.	8d\	.	.	8d/	.	.	8g/	-ce	<	8BB-/	-ce	.	8d\	.	.	8d/	.	.	8g/	-ce	<	8r	.	8r	2ryy	.	8r	2ryy	.	8r	8r	.
.	.	.	.	.	.	.	.	.	8F#X\	hac	.	8d\	.	.	8d/	.	.	8a/	hac	.	8F#X\	hac	.	8d\	.	.	8d/	.	.	8a/	hac	.	8r	.	8r	.	.	8r	.	.	8r	8r	.
.	.	.	.	.	.	.	.	.	4G\	me-	.	4d\	.	.	4g/	.	.	4b-\	me-	.	4G\	me-	.	4d\	.	.	4g/	.	.	4b-\	me-	.	4r	.	4r	.	.	4r	.	.	4r	4r	.
.	.	.	.	.	.	.	.	.	8E-\	-bri-	.	8c\	.	.	8g/	.	.	8cc\	-bri-	[ >	8E-\	-bri-	.	8c\	.	.	8g/	.	.	8cc\	-bri-	[[	8r	.	8r	8ryy	.	8r	8ryy	.	8r	8r	.
*	*	*	*	*	*	*	*	*	*	*	*	*	*	*	*	*	*	*	*	*	*	*	*	*	*	*	*	*	*	*	*	*	*	*	*v	*v	*	*	*	*	*	*	*
*	*	*	*	*	*	*	*	*	*	*	*	*	*	*	*	*	*	*	*	*	*	*	*	*	*	*	*	*	*	*	*	*	*	*	*	*	*v	*v	*	*	*	*
=44	=44	=44	=44	=44	=44	=44	=44	=44	=44	=44	=44	=44	=44	=44	=44	=44	=44	=44	=44	=44	=44	=44	=44	=44	=44	=44	=44	=44	=44	=44	=44	=44	=44	=44	=44	=44	=44	=44	=44	=44	=44
2.r	2.r	.	2.r	.	.	2.r	.	.	4.D\	-a-	.	4.A\	.	.	4.f#X/	.	.	(4dd\	-a-	.	4.D\	-a-	.	4.A\	.	.	4.f#X/	.	.	(4dd\	-a-	>	2.r	.	2.r	.	2.r	.	2.r	2.r	.
.	.	.	.	.	.	.	.	.	.	.	.	.	.	.	.	.	.	16cc\LL	.	.	.	.	.	.	.	.	.	.	.	16cc\LL	.	.	.	.	.	.	.	.	.	.	.
.	.	.	.	.	.	.	.	.	.	.	.	.	.	.	.	.	.	16b-\JJ)	.	]	.	.	.	.	.	.	.	.	.	16b-\JJ)	.	]	.	.	.	.	.	.	.	.	.
.	.	.	.	.	.	.	.	.	4.D\	-ri	.	4.d\	.	.	4.f#/	.	.	4.a/	-ri	.	4.D\	-ri	.	4.d\	.	.	4.f#/	.	.	4.a/	-ri	.	.	.	.	.	.	.	.	.	.
!!LO:PB:g=original
=45	=45	=45	=45	=45	=45	=45	=45	=45	=45	=45	=45	=45	=45	=45	=45	=45	=45	=45	=45	=45	=45	=45	=45	=45	=45	=45	=45	=45	=45	=45	=45	=45	=45	=45	=45	=45	=45	=45	=45	=45	=45
*^	*	*	*	*	*	*	*	*	*	*	*	*	*	*	*	*	*	*	*	*	*	*	*	*	*	*	*	*	*	*	*	*	*	*	*^	*	*^	*	*	*	*
!	!	!	!LO:DY:rj	!	!	!LO:DY:rj	!	!	!	!	!	!LO:DY:rj	!	!	!	!	!	!	!	!	!LO:DY:rj	!	!	!LO:DY:rj	!	!	!	!	!	!	!	!	!LO:DY:rj	!	!	!	!	!LO:DY:rj	!	!	!	!	!	!LO:DY:a:rj
4.C/	8C\L	8r	f	4.c 4.C\	.	f	4.ee- 4.g^>/	Ob	.	4.C/	Ob	f	4r	.	.	4.g/	.	.	4.ee-^\	Ob	f	4.C^/	Ob	f	4r	.	.	4.g^/	Ob	.	4.ee-\	Ob	f	4.c 4.C^<\	.	4.g/	4.cX^\	f	4.ee-X/	4.g^\	.	4.gg\	4.eee-^<\	f
.	8c\	8ee-L 8cc 8g 8e-/	.	.	.	.	.	.	.	.	.	.	.	.	.	.	.	.	.	.	.	.	.	.	.	.	.	.	.	.	.	.	.	.	.	.	.	.	.	.	.	.	.	.
.	8c\J	8ee-J 8cc 8g 8e-/	.	.	.	.	.	.	.	.	.	.	8r	.	.	.	.	.	.	.	.	.	.	.	8r	.	.	.	.	.	.	.	.	.	.	.	.	.	.	.	.	.	.	.
4.BB-/	8BB-\L	8r	.	4.d 4.BB-\	.	.	4.dd 4.g^>/	a-	.	4.BB-/	a-	.	4r	.	.	4.g/	.	.	4.dd^\	a-	.	4.BB-^/	a-	.	4r	.	.	4.g^/	a-	.	4.dd\	a-	.	4.B- 4.BB-^<\	.	4.g/	4.d^\	.	4.dd/	4.g^\	.	4.gg\	4.ddd^<\	.
.	8B-\	8ddL 8g 8d/	.	.	.	.	.	.	.	.	.	.	.	.	.	.	.	.	.	.	.	.	.	.	.	.	.	.	.	.	.	.	.	.	.	.	.	.	.	.	.	.	.	.
.	8B-\J	8ddJ 8g 8d/	.	.	.	.	.	.	.	.	.	.	8d\	a-	.	.	.	.	.	.	.	.	.	.	8d\	a-	.	.	.	.	.	.	.	.	.	.	.	.	.	.	.	.	.	.
=46	=46	=46	=46	=46	=46	=46	=46	=46	=46	=46	=46	=46	=46	=46	=46	=46	=46	=46	=46	=46	=46	=46	=46	=46	=46	=46	=46	=46	=46	=46	=46	=46	=46	=46	=46	=46	=46	=46	=46	=46	=46	=46	=46	=46
*	*	*	*	*^	*	*	*^	*	*	*	*	*	*	*	*	*	*	*	*	*	*	*	*	*	*	*	*	*	*	*	*	*	*	*	*	*	*	*	*	*	*	*	*	*
4.AA/	8AA\L	8r	.	4.d/	(>4AA\	.	.	(4dd/	4.f#X\	-mo-	.	(>4AA/	-mo-	.	4.d\	-mo-	.	4.f#X/	.	.	(4dd^\	-mo-	.	(>4AA^/	-mo-	.	4.d\	-mo-	.	4.f#X^/	-mo-	.	(4dd\	-mo-	.	4.A 4.AA^/	.	4.f#/	4.d^\	.	(4dd/	4.f#^\	.	4.ff#X\	(4ddd\	.
.	8A\	8ddL 8f#X 8d/	.	.	.	.	.	.	.	.	.	.	.	.	.	.	.	.	.	.	.	.	.	.	.	.	.	.	.	.	.	.	.	.	.	.	.	.	.	.	.	.	.	.	.	.
.	8A\J	8ccJ 8f# 8d/	.	.	8A\)	.	.	8cc/)	.	.	.	8A\)	.	.	.	.	.	.	.	.	8cc\)	.	.	8A\)	.	.	.	.	.	.	.	.	8cc\)	.	.	.	.	.	.	.	8cc/)	.	.	.	8ccc\)	.
4.GG/	8GG\L	8r	.	4.d/	4.G\	.	.	4.b-/	4.g\	-rem	.	4.G\	-rem	.	4.d\	-rem	.	4.g/	.	.	4.b-\	-rem	.	4.G\	-rem	.	4.d\	-rem	.	4.g/	-rem	.	4.b-\	-rem	.	4.G 4.GG/	.	4.g/	4.d\	.	4.b-/	4.g\	.	4.gg\	4.bb-\	.
.	8G\	8b-L 8g 8d/	.	.	.	.	.	.	.	.	.	.	.	.	.	.	.	.	.	.	.	.	.	.	.	.	.	.	.	.	.	.	.	.	.	.	.	.	.	.	.	.	.	.	.	.
.	8G\J	8b-J 8g 8d/	.	.	.	.	.	.	.	.	.	.	.	.	.	.	.	.	.	.	.	.	.	.	.	.	.	.	.	.	.	.	.	.	.	.	.	.	.	.	.	.	.	.	.	.
*	*	*	*	*v	*v	*	*	*	*	*	*	*	*	*	*	*	*	*	*	*	*	*	*	*	*	*	*	*	*	*	*	*	*	*	*	*	*	*v	*v	*	*	*	*	*	*	*
*	*	*	*	*	*	*	*v	*v	*	*	*	*	*	*	*	*	*	*	*	*	*	*	*	*	*	*	*	*	*	*	*	*	*	*	*	*	*	*	*	*	*	*	*	*
=47	=47	=47	=47	=47	=47	=47	=47	=47	=47	=47	=47	=47	=47	=47	=47	=47	=47	=47	=47	=47	=47	=47	=47	=47	=47	=47	=47	=47	=47	=47	=47	=47	=47	=47	=47	=47	=47	=47	=47	=47	=47	=47	=47
!	!	!	!	!	!	!	!	!	!	!	!	!LO:DY:rj	!	!	!	!	!	!	!	!	!LO:DY:rj	!	!	!LO:DY:rj	!	!	!	!	!	!	!	!	!LO:DY:rj	!	!	!	!	!	!	!LO:DY:a:rj	!	!	!
4.C/	8C\L	8r	p	2.r	.	.	2.r	.	.	4C/	ob	p	4e-\	.	.	4g/	.	.	4a/	ob	p	4C/	ob	p	4e-\	.	.	4g/	ob	.	4a/	ob	p	(4.c (4.C\	.	2.r	.	[4.a/	(4.e-X\	p	2.r	2.r	.
.	8c\	8aL 8g 8e-/	.	.	.	.	.	.	.	.	.	.	.	.	.	.	.	.	.	.	.	.	.	.	.	.	.	.	.	.	.	.	.	.	.	.	.	.	.	.	.	.	.
.	8c\J	8aJ 8g 8e-/	.	.	.	.	.	.	.	8C/	a-	.	8e-\	.	.	8g/	.	.	8a/	a-	.	8C/	a-	.	8e-\	.	.	8g/	a-	.	8a/	a-	.	.	.	.	.	.	.	.	.	.	.
4.C#X/	8C#\L	8r	.	.	.	.	.	.	.	4C#X/	-mo-	.	4en\	.	.	4g/	.	.	4a/	-mo-	.	4C#X/	-mo-	.	4en\	.	.	4g/	-mo-	.	4a/	-mo-	.	4c#X 4C#X\))	.	.	.	4a/]	4e\)	.	.	.	.
.	8c#X\	8aL 8g 8en/	.	.	.	.	.	.	.	.	.	.	.	.	.	.	.	.	.	.	.	.	.	.	.	.	.	.	.	.	.	.	.	.	.	.	.	.	.	.	.	.	.
.	8c#\J	8aJ 8g 8e/	.	.	.	.	.	.	.	8C#/	-rem	.	8e\	.	.	8g/	.	.	8a/	-rem	.	8C#/	-rem	.	8e\	.	.	8g/	-rem	.	8a/	-rem	.	8c# 8C#'\	.	.	.	8a'/	8e\	.	.	.	.
*v	*v	*	*	*	*	*	*	*	*	*	*	*	*	*	*	*	*	*	*	*	*	*	*	*	*	*	*	*	*	*	*	*	*	*	*	*	*	*	*	*	*	*	*
=48	=48	=48	=48	=48	=48	=48	=48	=48	=48	=48	=48	=48	=48	=48	=48	=48	=48	=48	=48	=48	=48	=48	=48	=48	=48	=48	=48	=48	=48	=48	=48	=48	=48	=48	=48	=48	=48	=48	=48	=48	=48	=48
*	*^	*	*	*	*	*	*	*	*	*	*	*	*	*	*	*	*	*	*	*	*	*	*	*	*	*	*	*	*	*	*	*	*	*	*	*	*	*	*	*	*	*
8D\	8r	8ryy	.	2.r	.	.	2.r	.	.	4D\	fi-	.	4d\	.	.	4g/	.	.	4a/	fi-	.	4D\	fi-	.	4d\	.	.	4g/	fi-	.	4a/	fi-	.	[4.d [>4.D\	.	4r	.	(4.a/	4g\	.	4r	4r	.
8r	8a/L	8g\L	.	.	.	.	.	.	.	.	.	.	.	.	.	.	.	.	.	.	.	.	.	.	.	.	.	.	.	.	.	.	.	.	.	.	.	.	.	.	.	.	.
8D 8DD/	8a/J	16f#X\L	.	.	.	.	.	.	.	8D\	-li-	.	8d\	.	.	(16f#X/LL	.	.	8dd\	-li-	.	8D\	-li-	.	8d\	.	.	16f#X/LL	-li-	.	8dd\	-li-	.	.	<	8r	.	.	16f#\LL	.	8r	8r	.
.	.	16en\JJ	.	.	.	.	.	.	.	.	.	.	.	.	.	16en/JJ)	.	.	.	.	.	.	.	.	.	.	.	16en/JJ	.	.	.	.	.	.	.	.	.	.	16e-\JJ	.	.	.	.
!	!	!	!	!	!	!	!	!	!	!	!	!	!	!	!	!	!	!	!	!	!	!	!	!	!	!	!	!	!	!	!	!	!	!	!	!	!	!	!	!	!	!	!LO:HP:a
4D 4DD/	4dd 4f# 4d/	4.ryy	.	.	.	.	.	.	.	(4D\	i	.	4.d\	.	.	4.f#/	.	.	4.dd\	-i	.	(4D\	i	<	4.d\	.	.	4.f#/	-i	.	4.dd\	-i	.	4d] 4D\]	.	4r	.	4dd/)	4f#\	<	4r	4r	<
8r	8r	.	.	.	.	.	.	.	.	8c\)	.	.	.	.	.	.	.	.	.	.	f	8c\)	.	[[	.	.	.	.	.	.	.	.	.	8cn 8Cn\	[	8d 8D/	.	8dd/	8f#\	[[	(8ff#X\	[8ddd\	[[
=49	=49	=49	=49	=49	=49	=49	=49	=49	=49	=49	=49	=49	=49	=49	=49	=49	=49	=49	=49	=49	=49	=49	=49	=49	=49	=49	=49	=49	=49	=49	=49	=49	=49	=49	=49	=49	=49	=49	=49	=49	=49	=49	=49
!	!	!	!	!	!	!	!	!	!	!	!	!	!	!	!	!	!	!	!	!	!	!	!	!LO:DY:rj	!LO:N:vis=4.	!	!	!	!	!	!	!LO:DY:rj	!	!LO:N:vis=4.	!LO:DY:rj	!	!	!LO:DY:rj	!	!	!	!	!LO:DY:a:rj
2.r	2.r	2.r	.	2.r	.	.	2.r	.	.	4B-\	Ob	.	4d\	.	.	4g/	.	.	(8.dd\L	Ob	.	4B-\	Ob	f	4d\	.	.	4g/	Ob	.	(8.dd\L	Ob	f	4B- 4BB-\	f	4.d 4.D/	.	(8.dd/L	4.g\	f	4.gg\)	(8.ddd\L]	f
.	.	.	.	.	.	.	.	.	.	.	.	.	.	.	.	.	.	.	16ee-\L	.	.	.	.	.	.	.	.	.	.	.	16ee-\L	.	.	.	.	.	.	16ee-/L	.	.	.	16eee-\L	.
.	.	.	.	.	.	.	.	.	.	8B-\	a-	.	8d\	.	.	8g/	.	.	16dd\JJ)	.	.	8B-\	a-	.	8d\	.	.	8g/	a-	.	16dd\JJ)	.	.	8d 8B-\	.	.	.	16dd/	.	.	.	16ddd\	.
.	.	.	.	.	.	.	.	.	.	.	.	.	.	.	.	.	.	.	16g/	a-	.	.	.	.	.	.	.	.	.	.	16g/	a-	.	.	.	.	.	16g/JJ)	.	.	.	16gg\JJ)	.
.	.	.	.	.	.	.	.	.	.	(8.Bn\L	-mo-	.	(8.d\L	.	.	4g/	.	.	4gg\	-mo-	.	(8.Bn\L	-mo-	.	(8.d\L	.	.	4g/	-mo-	.	4gg\	-mo-	.	8.dL 8.Bn\	.	8d 8D/	.	(4gg/	4.g\	.	4.gg\	(4ggg\	.
.	.	.	.	.	.	.	.	.	.	.	.	.	.	.	.	.	.	.	.	.	.	.	.	.	.	.	.	.	.	.	.	.	.	.	.	8r	.	.	.	.	.	.	.
.	.	.	.	.	.	.	.	.	.	16G\Jk)	.	.	16Bn\Jk)	.	.	.	.	.	.	.	.	16G\Jk)	.	.	16Bn\Jk)	.	.	.	.	.	.	.	.	(16BL 16G\	.	.	.	.	.	.	.	.	.
.	.	.	.	.	.	.	.	.	.	(16A\LL	rem	.	(16c\LL	.	.	8g/	.	.	8ff\	-rem	.	(16A\LL	rem	.	(16c\LL	.	.	8g/	-rem	.	8ff\	-rem	.	16c 16A\	.	8r	.	8ff/)	.	.	.	8fff\)	.
.	.	.	.	.	.	.	.	.	.	16B\JJ)	.	.	16d\JJ)	.	.	.	.	.	.	.	.	16B\JJ)	.	.	16d\JJ)	.	.	.	.	.	.	.	.	16dJJ 16B\)	.	.	.	.	.	.	.	.	.
*	*v	*v	*	*	*	*	*	*	*	*	*	*	*	*	*	*	*	*	*	*	*	*	*	*	*	*	*	*	*	*	*	*	*	*	*	*	*	*	*	*	*	*	*
!!LO:PB:g=original
=50	=50	=50	=50	=50	=50	=50	=50	=50	=50	=50	=50	=50	=50	=50	=50	=50	=50	=50	=50	=50	=50	=50	=50	=50	=50	=50	=50	=50	=50	=50	=50	=50	=50	=50	=50	=50	=50	=50	=50	=50	=50	=50
*	*	*	*	*	*	*	*	*	*	*	*	*	*	*	*	*	*	*	*	*	*	*	*	*	*	*	*	*	*	*	*	*	*	*	*^	*	*	*	*	*	*	*
!	!	!	!	!	!	!	!	!	!	!	!	!	!	!	!	!	!	!	!	!	!	!	!	!	!	!	!	!	!	!	!	!	!	!	!	!LO:TX:a:t=P:problem=jedna nuta	!	!	!	!	!	!	!
2.r	2.r	.	2.r	.	.	2.r	.	.	4c\	Ob	.	4c\	.	.	4g/	Ob	.	(8.ee-\L	Ob	.	4c\	Ob	.	4c\	.	.	4g/	Ob	.	(8.ee-\L	Ob	.	4c\	.	[4.c/	[4.c\	.	(8.ee-/L	4.g\	.	4.gg\	(8.eee-\L	.
.	.	.	.	.	.	.	.	.	.	.	.	.	.	.	.	.	.	16cc\Jk)	.	.	.	.	.	.	.	.	.	.	.	16cc\Jk)	.	.	.	.	.	.	.	16cc/L	.	.	.	16ccc\L	.
.	.	.	.	.	.	.	.	.	8B-\	a-	.	8c\	.	.	8g/	a-	.	(16dd\LL	a-	.	8B-\	a-	.	8c\	.	.	8g/	a-	.	(16dd\LL	a-	.	8c 8B-\	.	.	.	.	16dd/	.	.	.	16ddd\	.
.	.	.	.	.	.	.	.	.	.	.	.	.	.	.	.	.	.	16ee-\JJ)	.	.	.	.	.	.	.	.	.	.	.	16ee-\JJ)	.	.	.	.	.	.	.	16ee-/JJ)	.	.	.	16eee-\JJ)	.
.	.	.	.	.	.	.	.	.	(8.A\L	-mo-	.	(8.c\L	.	.	4.f/	-mo-	.	4ff\	-mo-	.	(8.A\L	-mo-	.	(8.c\L	.	.	[4f/	-mo-	.	4ff\	-mo-	.	(8.cL 8.A\	.	8c/]	8c\]	.	(4ff/	4.fX\	.	4.ffn\	(4fff\	.
.	.	.	.	.	.	.	.	.	.	.	.	.	.	.	.	.	.	.	.	.	.	.	.	.	.	.	.	.	.	.	.	.	.	.	8r	4ryy	.	.	.	.	.	.	.
.	.	.	.	.	.	.	.	.	16F\Jk)	.	.	16A\Jk)	.	.	.	.	.	.	.	.	16F\Jk)	.	.	16A\Jk)	.	.	.	.	.	.	.	.	16AL 16F\	.	.	.	.	.	.	.	.	.	.
.	.	.	.	.	.	.	.	.	(16G\LL	-rem	.	(16B-\LL	.	.	.	.	.	8ee-\	-rem	.	(16G\LL	-rem	.	(16B-\LL	.	.	8f/]	.	.	8ee-\	-rem	.	16B- 16G\	.	8r	.	.	8ee-/)	.	.	.	8eee-\)	.
.	.	.	.	.	.	.	.	.	16A\JJ)	.	.	16c\JJ)	.	.	.	.	.	.	.	.	16A\JJ)	.	.	16c\JJ)	.	.	.	.	.	.	.	.	16cJJ 16A\)	.	.	.	.	.	.	.	.	.	.
=51	=51	=51	=51	=51	=51	=51	=51	=51	=51	=51	=51	=51	=51	=51	=51	=51	=51	=51	=51	=51	=51	=51	=51	=51	=51	=51	=51	=51	=51	=51	=51	=51	=51	=51	=51	=51	=51	=51	=51	=51	=51	=51	=51
2.r	2.r	.	2.r	.	.	2.r	.	.	(8.B-\L	ob	.	4d\	.	.	8f/	-rem	.	(8.dd\L	Ob	.	(8.B-\L	ob	.	4d\	.	.	8f/	-rem	.	(8.dd\L	Ob	.	(8.B-\L	.	4.d 4.D/	4.ryy	.	(8.dd/L	8fX\	.	8ff\	(8.ddd\L	.
.	.	.	.	.	.	.	.	.	.	.	.	.	.	.	8r	.	.	.	.	.	.	.	.	.	.	.	8r	.	.	.	.	.	.	.	.	.	.	.	8r	.	8r	.	.
.	.	.	.	.	.	.	.	.	16F#X\Jk)	.	.	.	.	.	.	.	.	16a\Jk)	.	.	16F#X\Jk)	.	.	.	.	.	.	.	.	16a\Jk)	.	.	16F#X\L	.	.	.	.	16a/L	.	.	.	16aa\L	.
.	.	.	.	.	.	.	.	.	(16G\LL	a-	.	8d\	.	.	8r	.	.	(16b-/LL	a-	.	(16G\LL	a-	.	8d\	.	.	8r	.	.	(16b-/LL	a-	.	16G\	.	.	.	.	16b-/	8r	.	8r	16bb-\	.
.	.	.	.	.	.	.	.	.	16Fn\JJ)	.	.	.	.	.	.	.	.	16a/JJ)	.	.	16Fn\JJ)	.	.	.	.	.	.	.	.	16a/JJ)	.	.	16Fn\JJ)	.	.	.	.	16a/JJ	.	.	.	16aa\JJ)	.
.	.	.	.	.	.	.	.	.	4E-\	-mo-	.	(8d\L	.	.	8r	.	.	4g/	-mo-	.	4E-\	-mo-	.	(8d\L	.	.	8r	.	.	4g/	-mo-	.	4E-\	.	8d/	8d\	.	(4g/)	8r	.	8r	(4gg\	.
!	!	!	!	!	!	!	!	!	!	!	!	!	!	!	!	!	!	!	!	!	!	!	!	!	!	!	!	!	!	!	!	!	!	!	!	!LO:TX:a:t=P:problem=jedna nuta	!	!	!	!	!	!	!
.	.	.	.	.	.	.	.	.	.	.	.	8c\J)	.	.	8r	.	.	.	.	.	.	.	.	8c\J)	.	.	8r	.	.	.	.	.	.	.	4c/	4c\	.	.	8r	.	8r	.	.
.	.	.	.	.	.	.	.	.	8C\	-rem	.	8A\	.	.	(8e-/	fi-	.	8cc\	-rem	.	8C\	-rem	.	8A\	.	.	(8e-/	fi-	.	8cc\	-rem	.	8C\	.	.	.	.	8cc/)	8e-\	.	8ee-\	8ccc\)	.
=52	=52	=52	=52	=52	=52	=52	=52	=52	=52	=52	=52	=52	=52	=52	=52	=52	=52	=52	=52	=52	=52	=52	=52	=52	=52	=52	=52	=52	=52	=52	=52	=52	=52	=52	=52	=52	=52	=52	=52	=52	=52	=52	=52
!	!	!	!	!	!	!	!	!	!	!	!	!	!	!	!	!	!	!	!	!	!	!	!	!	!	!	!	!	!	!LO:TX:a:i:t=rall&colon;	!	!	!	!	!	!	!	!	!	!	!	!LO:TX:a:i:t=rall.	!
2.r;	2.r;	.	2.r;	.	.	2.r;	.	.	4D\	fi-	.	4G/	.	.	4d/)	.	.	4b-\	fi-	.	4D\	fi-	.	4G/	.	.	4d/)	.	.	4b-\	fi-	.	[4D\	.	[4d/	4d\	.	4b-/	4g\	.	4dd\	4bb-\	.
.	.	.	.	.	.	.	.	.	.	.	.	8qG/	.	.	(8qd/	.	.	(8qb-/	.	.	.	.	.	(8qG/	.	.	(>8qd/	.	.	(8qb-/	.	.	.	.	.	.	.	8qb- 8qg/	.	.	(8qdd/	(8qbb-/	.
.	.	.	.	.	.	.	.	.	(16.D\LL	-li-	.	16.F#X/LL	.	.	16.c/LL	-li-	.	16.a/LL	-li-	.	(16.D\LL	-li-	.	16.F#X/LL	.	.	16.c/LL	-li-	.	16.a/LL	-li-	.	16.D\LL]	.	16.d\LL]	2ryy	.	16.a/LL	16.f#\LL	.	16.cc\LL)	16.aa\LL)	.
.	.	.	.	.	.	.	.	.	32E-\JJk)	.	.	32G/JJk	.	.	32B-/JJk)	.	.	32g/JJk)	.	.	32E-\JJk)	.	.	32G/JJk)	.	.	32B-/JJk)	.	.	32g/JJk)	.	.	32E-X\JJk	.	32e-X\JJk	.	.	32g/JJk	32g\JJk	.	32b-\JJk	32gg\JJk	.
.	.	.	.	.	.	.	.	.	8E-;\	-i	.	8G;</	.	.	8B-;/	-i	.	8g;/	-i	.	8E-;\	-i	.	8G;</	.	.	8B-;/	-i	.	8g;/	-i	.	8E-;\	.	8e-;\	.	.	8g;/	8g\	.	8b-;\	8gg;\	.
!	!	!	!	!	!	!	!	!	!	!	!	!	!	!	!	!	!	!	!	!LO:DY:rj	!	!	!	!	!	!	!	!	!	!LO:TX:a:i:t=a tempo	!	!LO:DY:rj:t=p.	!	!	!	!	!	!	!	!	!	!	!
.	.	.	.	.	.	.	.	.	8E-\	ob	p	8G/	.	.	8B-/	.	.	8g/	Ob	p	8E-\	ob	p	8G/	.	.	8B-/	.	.	8g/	ob	p	8r	.	8r	.	.	8r	4ryy	.	8r	8r	.
!	!	!	!	!	!	!	!	!	!	!	!	!	!	!	!	!	!	!	!	!	!	!	!	!	!	!	!	!	!	!	!	!	!	!	!	!	!	!	!	!	!	!LO:TX:a:i:t=a tempo	!
.	.	.	.	.	.	.	.	.	8C/	a-	.	8c\	.	.	8e-/	.	.	8a/	a-	.	8C/	a-	.	8c\	.	.	8e-/	.	.	8a/	a-	.	8r	.	8r	.	.	8r	.	.	8r	8r	.
*	*	*	*	*	*	*	*	*	*	*	*	*	*	*	*	*	*	*	*	*	*	*	*	*	*	*	*	*	*	*	*	*	*	*	*v	*v	*	*	*	*	*	*	*
=53	=53	=53	=53	=53	=53	=53	=53	=53	=53	=53	=53	=53	=53	=53	=53	=53	=53	=53	=53	=53	=53	=53	=53	=53	=53	=53	=53	=53	=53	=53	=53	=53	=53	=53	=53	=53	=53	=53	=53	=53	=53	=53
2.r	2.r	.	2.r	.	.	2.r	.	.	4D\	-mo-	.	4B-\	.	.	4d/	.	.	4d/	-mo-	.	4D\	-mo-	.	4B-\	.	.	4d/	.	.	4d/	-mo-	.	2.r	.	2.r	.	2.r	2.r	.	2.r	2.r	.
.	.	.	.	.	.	.	.	.	8D\	-rem	.	8B-\	.	.	8d/	.	.	8g/	-rem	.	8D\	-rem	.	8B-\	.	.	8d/	.	.	8g/	-rem	.	.	.	.	.	.	.	.	.	.	.
.	.	.	.	.	.	.	.	.	4D\	fi-	.	(8.d\L	.	.	4d/	.	.	(8.b-/L	fi-	.	4D\	fi-	.	(8.d\L	.	.	4d/	.	.	(8.b-/L	fi-	.	.	.	.	.	.	.	.	.	.	.
.	.	.	.	.	.	.	.	.	.	.	.	16c\Jk)	.	.	.	.	.	16a/Jk)	.	.	.	.	.	16c\Jk)	.	.	.	.	.	16a/Jk)	.	.	.	.	.	.	.	.	.	.	.	.
.	.	.	.	.	.	.	.	.	8D\	-li-	.	(16B-\LL	.	.	8d/	.	.	(16g/LL	-li-	.	8D\	-li-	.	(16B-\LL	.	.	8d/	.	.	(16g/LL	-li-	.	.	.	.	.	.	.	.	.	.	.
.	.	.	.	.	.	.	.	.	.	.	.	16A\JJ)	.	.	.	.	.	16f#X/JJ)	.	.	.	.	.	16A\JJ)	.	.	.	.	.	16f#X/JJ)	.	.	.	.	.	.	.	.	.	.	.	.
*	*	*	*	*	*	*	*	*	*	*	*	*	*	*	*	*	*	*	*	*	*	*	*	*	*	*	*	*	*	*	*	*	*	*	*	*	*v	*v	*	*	*	*
=54	=54	=54	=54	=54	=54	=54	=54	=54	=54	=54	=54	=54	=54	=54	=54	=54	=54	=54	=54	=54	=54	=54	=54	=54	=54	=54	=54	=54	=54	=54	=54	=54	=54	=54	=54	=54	=54	=54	=54	=54	=54
*	*	*	*	*	*	*	*	*	*	*	*	*	*	*	*	*	*	*	*	*	*	*	*	*	*	*	*	*	*	*	*	*	*^	*	*	*	*	*	*	*	*
2.r	2.r	.	2.r	.	.	2.r	.	.	4G\	-i	.	4B-\	.	.	4d/	.	.	4g/	-i	.	4G\	-i	.	4B-\	.	.	4d/	.	.	4g/	-i	.	4r	4.ryy	.	4r	.	4r	.	4r	4r	.
.	.	.	.	.	.	.	.	.	8r	.	.	8r	.	.	8r	.	.	8r	.	.	8r	.	.	8r	.	.	8r	.	.	8r	.	.	8r	.	.	8r	.	8r	.	8r	8r	.
!	!	!	!	!	!	!	!	!	!	!	!LO:DY:rj	!	!	!	!	!	!	!	!	!LO:DY:rj	!	!	!LO:DY:rj	!	!	!	!	!	!	!	!	!LO:DY:rj	!	!	!	!	!	!	!LO:DY:a:rj	!	!	!LO:DY:a:rj
.	.	.	.	.	.	.	.	.	4.G\	a-	f	4.d\	.	.	4.f/	.	.	4.g/	a-	f	4.G\	a-	f	4.d\	.	.	4.f/	.	.	4.g/	a-	f	4.d/	4.GG\	.	4.g 4.G\	.	4.dd 4.f/	f	4.ff\	4.gg\	f
!!LO:PB:g=original
=55	=55	=55	=55	=55	=55	=55	=55	=55	=55	=55	=55	=55	=55	=55	=55	=55	=55	=55	=55	=55	=55	=55	=55	=55	=55	=55	=55	=55	=55	=55	=55	=55	=55	=55	=55	=55	=55	=55	=55	=55	=55	=55
*	*	*	*	*	*	*	*	*	*	*	*	*	*	*	*	*	*	*	*	*	*	*	*	*	*	*	*	*	*	*	*	*	*	*	*	*	*	*^	*	*	*	*
*	*	*	*	*	*	*	*	*	*	*	*	*	*	*	*	*	*	*	*	*	*	*	*	*	*	*	*	*	*	*	*	*	*	*2\right	*	*2\right	*	*	*	*	*	*2\right	*
2.r	2.r	.	2.r	.	.	2.r	.	.	4.G\	-mo-	.	4.c\	.	.	4.e-/	.	.	4.g/	-mo-	.	4.G\	-mo-	.	4.c\	.	.	4.e-/	.	.	4.g/	-mo-	.	4.c/	2.GG\	.	2.g 2.G\	.	4.cc/	4.e-\	.	4.ee-\	2.gg\	.
.	.	.	.	.	.	.	.	.	4.G\	-rem	.	4.Bn\	.	.	4.d/	.	.	4.g/	-rem	.	4.G\	-rem	.	4.Bn\	.	.	4.d/	.	.	4.g/	-rem	.	4.Bn/	.	.	.	.	4.b/	4.d\	.	4.dd\	.	.
=56	=56	=56	=56	=56	=56	=56	=56	=56	=56	=56	=56	=56	=56	=56	=56	=56	=56	=56	=56	=56	=56	=56	=56	=56	=56	=56	=56	=56	=56	=56	=56	=56	=56	=56	=56	=56	=56	=56	=56	=56	=56	=56	=56
2.r	2.r	.	4r	.	.	4r	.	.	[4.G\	fi-	.	[4.c\	.	.	[4.e-/	.	.	[4.g/	fi-	.	[4.G\	fi-	.	[4.c\	.	.	[4.e-/	.	.	[4.g/	fi-	.	[4.c/	[>4.GG\	.	[4.g [>4.G\	.	[4.cc/	[4.e-\	.	[4.ee-\	[4.gg\	.
!	!	!	!	!	!LO:DY:t=for.	!	!	!	!	!	!	!	!	!	!	!	!	!	!	!	!	!	!	!	!	!	!	!	!	!	!	!	!	!	!	!	!	!	!	!	!	!	!
.	.	.	8r	.	f	8r	.	f	.	.	.	.	.	.	.	.	.	.	.	.	.	.	.	.	.	.	.	.	.	.	.	.	.	.	.	.	.	.	.	.	.	.	.
.	.	.	4r	.	.	4r	.	.	4G\]	.	.	4c\]	.	.	4e-/]	.	.	4g/]	.	.	4G\]	.	.	4c\]	.	.	4e-/]	.	.	4g/]	.	.	4c/]	4GG\]	.	4g] 4G\]	.	4cc/]	4e-\]	.	4ee-\]	4gg\]	.
.	.	.	8c 8G\	a-	.	8g 8e-/	a-	.	8G\	-li-	.	8c\	.	.	8e-/	.	.	8g/	-li-	.	8G\	-li-	.	8c\	.	.	8e-/	.	.	8g/	-li-	.	8c/	8GG\	.	8g 8G\	.	8cc/	8e-\	.	8ee-\	8gg\	.
=57	=57	=57	=57	=57	=57	=57	=57	=57	=57	=57	=57	=57	=57	=57	=57	=57	=57	=57	=57	=57	=57	=57	=57	=57	=57	=57	=57	=57	=57	=57	=57	=57	=57	=57	=57	=57	=57	=57	=57	=57	=57	=57	=57
*	*	*	*	*	*	*	*	*	*2\right	*	*	*2\right	*	*	*	*	*	*	*	*	*2\right	*	*	*2\right	*	*	*	*	*	*	*	*	*	*	*	*	*	*	*2\right	*	*2\right	*	*
2.r	2.r	.	4Bn 4G\	-mo-	.	4g 4d/	-mo-	.	[2.G\	-i	.	[2.Bn\	.	.	[2.d/	.	.	[2.g/	-i	.	[2.G\	-i	.	[2.Bn\	.	.	[2.d/	.	.	[2.g/	-i	.	[2.Bn/	[>2.GG\	.	[2.g [>2.G\	.	[2.b/	[>2.d\	.	2.dd\	[2.gg\	.
.	.	.	8B 8G\	-rem	.	8g 8d/	-rem	.	.	.	.	.	.	.	.	.	.	.	.	.	.	.	.	.	.	.	.	.	.	.	.	.	.	.	.	.	.	.	.	.	.	.	.
.	.	.	4B 4G\	fi-	.	4g 4d/	fi-	.	.	.	.	.	.	.	.	.	.	.	.	.	.	.	.	.	.	.	.	.	.	.	.	.	.	.	.	.	.	.	.	.	.	.	.
.	.	.	8B 8G\	-li-	.	8g 8d/	-li-	.	.	.	.	.	.	.	.	.	.	.	.	.	.	.	.	.	.	.	.	.	.	.	.	.	.	.	.	.	.	.	.	.	.	.	.
=58	=58	=58	=58	=58	=58	=58	=58	=58	=58	=58	=58	=58	=58	=58	=58	=58	=58	=58	=58	=58	=58	=58	=58	=58	=58	=58	=58	=58	=58	=58	=58	=58	=58	=58	=58	=58	=58	=58	=58	=58	=58	=58	=58
*Xtuplet	*Xtuplet	*	*	*	*	*	*	*	*	*	*	*	*	*	*	*	*	*	*	*	*	*	*	*	*	*	*	*	*	*	*	*	*	*	*	*	*	*	*	*	*	*	*
24GG\LL	24G</LL	.	8Bn 8G\	-i.	.	8g 8d/	-i.	.	8G\]	.	.	8B\]	.	.	8d/]	.	.	8g/]	.	.	8G\]	.	.	8B\]	.	.	8d/]	.	.	8g/]	.	.	8Bn/]	8GG\]	.	8g] 8G\]	.	8b/]	8d\]	.	8dd\	8gg\]	.
24BBn\	24Bn</	.	.	.	.	.	.	.	.	.	.	.	.	.	.	.	.	.	.	.	.	.	.	.	.	.	.	.	.	.	.	.	.	.	.	.	.	.	.	.	.	.	.
24D\JJ	24d</JJ	.	.	.	.	.	.	.	.	.	.	.	.	.	.	.	.	.	.	.	.	.	.	.	.	.	.	.	.	.	.	.	.	.	.	.	.	.	.	.	.	.	.
24G\LL	24g/LL	.	8r	.	.	8r	.	.	8r	.	.	8r	.	.	8r	.	.	8r	.	.	8r	.	.	8r	.	.	8r	.	.	8r	.	.	8r	8r	.	8r	.	8r	2ryy	.	8r	8r	.
24Bn\	24bn/	.	.	.	.	.	.	.	.	.	.	.	.	.	.	.	.	.	.	.	.	.	.	.	.	.	.	.	.	.	.	.	.	.	.	.	.	.	.	.	.	.	.
24d\JJ	24dd/JJ	.	.	.	.	.	.	.	.	.	.	.	.	.	.	.	.	.	.	.	.	.	.	.	.	.	.	.	.	.	.	.	.	.	.	.	.	.	.	.	.	.	.
24g>\LL	24gg/LL	.	8r	.	.	8r	.	.	8r	.	.	8r	.	.	8r	.	.	8r	.	.	8r	.	.	8r	.	.	8r	.	.	8r	.	.	8r	8r	.	8r	.	8r	.	.	8r	8r	.
24bn>\	24bbn/	.	.	.	.	.	.	.	.	.	.	.	.	.	.	.	.	.	.	.	.	.	.	.	.	.	.	.	.	.	.	.	.	.	.	.	.	.	.	.	.	.	.
24dd>\JJ	24ddd/JJ	.	.	.	.	.	.	.	.	.	.	.	.	.	.	.	.	.	.	.	.	.	.	.	.	.	.	.	.	.	.	.	.	.	.	.	.	.	.	.	.	.	.
!	!	!	!	!	!	!	!	!	!	!	!	!	!	!	!	!	!	!	!	!	!	!	!	!	!	!	!	!	!	!	!	!	!	!	!	!	!	!	!	!	!	!LO:TX:b:t=sec	!
8gg> 8dd> 8b> 8g>\	8ggg 8ddd 8bb/	.	4r	.	.	4r	.	.	4r	.	.	4r	.	.	4r	.	.	4r	.	.	4r	.	.	4r	.	.	4r	.	.	4r	.	.	8Bny 8GG\	8ryy	.	8g 8G\	.	8b 8d/	.	.	8gg\	8ggg\	.
8r>	8r	.	.	.	.	.	.	.	.	.	.	.	.	.	.	.	.	.	.	.	.	.	.	.	.	.	.	.	.	.	.	.	8r	4ryy	.	8r	.	8r	.	.	8r	8r	.
8r>	8r	.	8r	.	.	8r	.	.	8r	.	.	8r	.	.	8r	.	.	8r	.	.	8r	.	.	8r	.	.	8r	.	.	8r	.	.	8r	.	.	8r	.	8r	8ryy	.	8r	8r	.
*	*	*	*	*	*	*	*	*	*	*	*	*	*	*	*	*	*	*	*	*	*	*	*	*	*	*	*	*	*	*	*	*	*v	*v	*	*	*	*v	*v	*	*	*	*
==	==	==	==	==	==	==	==	==	==	==	==	==	==	==	==	==	==	==	==	==	==	==	==	==	==	==	==	==	==	==	==	==	==	==	==	==	==	==	==	==	==
*-	*-	*-	*-	*-	*-	*-	*-	*-	*-	*-	*-	*-	*-	*-	*-	*-	*-	*-	*-	*-	*-	*-	*-	*-	*-	*-	*-	*-	*-	*-	*-	*-	*-	*-	*-	*-	*-	*-	*-	*-	*-
!!!system-decoration: ({g1}{g2}{g3}{g4}{s16,s17})
!!!RDF**kern: > = above
!!!RDF**kern: < = below
!!!ENC: Marta Lawrence
!!!END: 2021-06-29
!!!ENC: Tomasz Grochalski
!!!END: 2021-06-21
!!!YEC: Copyright 2022 Narodowy Instytut Fryderyka Chopina (https://polishscores.org)
!!!YEM: License CC-BY-4.0 (https://creativecommons.org/licenses/by/4.0)
